( Made using CamBam - http://www.cambam.co.uk )
( tabla_elektronika_edit_znak 10/21/2014 10:01:36 AM )
( T0 : 3.5 )
G21 G90 G64 G40
G0 Z3.0
( T0 : 3.5 )
T0 M6
( znak )
G17
M3 S1000
G0 X230.5904 Y202.9757
G0 Z1.0
G1 F300.0 Z-1.6
G3 F800.0 X236.8921 Y205.5856 I0.0102 J8.8882
G3 X239.502 Y211.8863 I-6.2777 J6.2912
G3 X236.8917 Y218.1865 I-8.8869 J0.0089
G3 X230.5904 Y220.7959 I-6.291 J-6.2786
G1 X94.8671
G3 X88.5652 Y218.1872 I-0.011 J-8.8896
G3 X85.9555 Y211.8861 I6.2754 J-6.29
G3 X88.5647 Y205.585 I8.8882 J-0.0103
G3 X94.8672 Y202.9757 I6.2906 J6.2783
G1 X230.5904
G0 Z3.0
G0 X187.1662 Y167.3381
G0 Z1.0
G1 F300.0 Z-1.6
G1 F800.0 X169.6145 Y188.7248
G3 X169.6141 Y188.7252 I-1.3528 J-1.1102
G3 X167.9301 Y190.2725 I-6.3267 J-5.1957
G3 X165.9246 Y191.2987 I-4.9191 J-7.1407
G3 X165.9241 Y191.2989 I-0.588 J-1.6482
G3 X161.5878 Y191.7827 I-3.1954 J-8.9654
G3 X158.7622 Y190.9816 I1.0801 J-9.1939
G3 X158.7606 Y190.9809 I0.7384 J-1.5866
G3 X157.2826 Y190.099 I3.5931 J-7.701
G3 X155.8404 Y188.7247 I4.8618 J-6.5463
G1 X88.6023 Y106.7994
G3 X88.6013 Y106.7982 I1.3527 J-1.1102
G3 X87.4395 Y97.3363 I6.8952 J-5.6489
G3 X95.493 Y92.2381 I8.0507 J3.8073
G1 X229.9619
G3 X238.0179 Y97.3362 I0.0036 J8.9085
G3 X238.0184 Y97.3372 I-1.5818 J0.7485
G3 X236.8493 Y106.7994 I-8.0597 J3.8075
G1 X187.1662 Y167.3381
G0 Z3.0
G0 X163.6397 Y230.6492
G0 Z1.0
G1 F300.0 Z-1.6
G3 F800.0 X166.8506 Y232.7189 I-3.0937 J8.3252
G3 X169.4443 Y239.0266 I-6.3006 J6.2779
G1 X169.2743 Y302.8606
G3 X166.6572 Y309.1486 I-8.8902 J-0.0115
G3 X160.3628 Y311.75 I-6.2834 J-6.2875
G3 X156.6189 Y311.7158 I-0.0623 J-198.0123
G3 X152.8725 Y311.6128 I3.2115 J-185.0005
G3 X152.8706 Y311.6127 I0.0658 J-1.7488
G3 X150.3774 Y311.5019 I8.4483 J-218.225
G3 X150.3725 Y311.5017 I0.0877 J-1.7478
G1 X150.0535 Y311.4848
G3 X150.0478 Y311.4845 I0.0926 J-1.7475
G1 X149.3674 Y311.4462
G3 X149.359 Y311.4457 I0.0983 J-1.7472
G1 X148.6334 Y311.4014
G3 X148.624 Y311.4008 I0.1066 J-1.7467
G1 X147.8503 Y311.3494
G3 X147.8476 Y311.3492 I0.116 J-1.7461
G3 X143.6616 Y310.9845 I7.5072 J-110.3685
G3 X143.6584 Y310.9841 I0.185 J-1.7402
G1 X143.5288 Y310.9701
G3 X143.5222 Y310.9694 I0.1882 J-1.7399
G1 X142.9877 Y310.9095
G3 X142.9828 Y310.909 I0.1948 J-1.7391
G3 X122.9398 Y307.2338 I17.3681 J-151.2088
G3 X103.5686 Y300.9022 I36.9863 J-145.9563
G1 X103.5684 Y300.9021
G3 X68.2526 Y280.7401 I56.5467 J-140.0576
G3 X48.2568 Y262.3692 I92.4261 J-120.6691
G3 X27.2632 Y232.9219 I112.5428 J-102.4412
G1 X27.2633 Y232.922
G1 X27.2632 Y232.9219
G3 X11.1881 Y187.5534 I132.7497 J-72.5683
G3 Y187.5529 I1.7215 J-0.3146
G3 X8.7076 Y160.0849 I150.2416 J-27.4133
G3 X8.9103 Y152.1917 I155.0766 J0.0328
G3 Y152.1906 I1.7477 J0.0894
G3 X9.5203 Y144.3179 I154.313 J7.9959
G3 X9.5204 Y144.3172 I1.7407 J0.1797
G3 X11.9658 Y128.7167 I150.5433 J15.6058
G3 Y128.7163 I1.7124 J0.3608
G3 X21.6705 Y98.7054 I147.4095 J31.0932
G1 Y98.7053
G3 X31.5225 Y80.1063 I138.581 J61.4985
G1 X31.5226 Y80.1062
G3 X48.4599 Y57.7579 I129.745 J80.7386
G1 X48.46 Y57.7578
G1 X48.4599 Y57.7579
G3 X76.8226 Y33.4681 I113.0256 J103.2735
G1 X76.8227 Y33.468
G3 X95.4221 Y22.9329 I83.8535 J126.3549
G3 X118.2492 Y14.2413 I64.9238 J136.191
G3 X118.2495 Y14.2412 I0.4883 J1.6805
G3 X145.657 Y8.9734 I42.0466 J144.8294
G1 X145.6571
G1 X145.6569
G1 X145.657
G3 X160.5362 Y8.25 I14.8556 J152.169
G3 X166.8371 Y10.8609 I0.0102 J8.8838
G3 X169.4468 Y17.1603 I-6.2808 J6.2922
G3 X166.8369 Y23.4603 I-8.8859 J0.0095
G3 X160.5358 Y26.0711 I-6.2909 J-6.2738
G2 X148.3004 Y26.6249 I-0.0332 J134.7114
G1 X147.4844 Y26.7016
G1 X146.6143 Y26.7889
G2 X132.8493 Y28.9471 I13.7613 J132.7508
G2 X131.0326 Y29.3435 I29.2387 J138.3529
G2 X102.989 Y39.0673 I29.2995 J129.8008
G1 X102.9889 Y39.0674
G2 X85.7912 Y48.9044 I57.6524 J120.7437
G1 X85.791 Y48.9045
G2 X65.4552 Y65.7379 I75.5144 J111.926
G3 X65.4549 Y65.7382 I-1.2423 J-1.2325
G2 X44.1556 Y93.6992 I95.7384 J95.0218
G2 X35.4991 Y111.8633 I115.9848 J66.4194
G1 Y111.8634
G1 X35.4992 Y111.8632
G1 X35.4991 Y111.8633
G2 X29.0885 Y133.9403 I123.8825 J47.9418
G2 X26.5287 Y160.0847 I131.6565 J26.088
G3 Y160.0861 I-1.75 J0.0007
G2 X27.2973 Y174.5146 I134.8115 J0.053
G1 X27.2974 Y174.5147
G2 X29.6078 Y188.7769 I133.4653 J-14.3031
G1 Y188.777
G1 Y188.7768
G1 Y188.7769
G2 X38.7641 Y216.1377 I130.3084 J-28.3952
G3 X38.7642 Y216.138 I-1.5897 J0.7316
G2 X48.0501 Y233.0078 I121.5187 J-55.8983
G1 X48.0502 Y233.008
G2 X63.9981 Y253.1092 I112.7763 J-73.0973
G3 X63.9983 Y253.1095 I-1.2608 J1.2136
G2 X90.6359 Y274.5091 I96.523 J-92.8699
G2 X132.9039 Y291.2473 I69.4041 J-113.5253
G3 X132.9046 Y291.2474 I-0.3569 J1.7132
G2 X144.9282 Y293.1928 I27.4398 J-131.4641
G3 X144.9581 Y293.1965 I-0.2009 J1.7384
G2 X144.994 Y293.2007 I0.138 J-1.0368
G3 X145.0229 Y293.2037 I-0.1708 J1.7416
G2 X145.6455 Y293.2728 I9.1668 J-79.8174
G1 X146.2823 Y293.338
G3 X146.3173 Y293.342 I-0.1784 J1.7409
G3 X146.3597 Y293.3456 I-0.1278 J1.7453
G2 X147.7005 Y293.4659 I8.2623 J-84.5161
G3 X147.745 Y293.4702 I-0.1426 J1.7442
G3 X147.8333 Y293.4774 I-0.0988 J1.7472
G3 X147.8746 Y293.4802 I-0.0959 J1.7474
G1 X148.2917 Y293.513
G3 X148.298 Y293.5135 I-0.1372 J1.7446
G2 X148.7475 Y293.5469 I2.3744 J-28.8641
G3 X148.7797 Y293.5494 I-0.1163 J1.7461
G2 X148.8561 Y293.5548 I0.2432 J-2.8564
G3 X148.8765 Y293.5562 I-0.1018 J1.747
G1 X149.1376 Y293.5744
G2 X151.4767 Y293.7137 I9.0874 J-132.9503
G1 X151.624 Y238.9819
G3 X154.2401 Y232.6933 I8.8839 J0.0074
G3 X160.5351 Y230.093 I6.2812 J6.2861
G1 X160.5515
G3 X160.5528 I0.0 J1.75
G3 X163.6397 Y230.6492 I-0.0068 J8.8815
G1 F300.0 Z-3.1
G3 F800.0 X166.8506 Y232.7189 I-3.0937 J8.3252
G3 X169.4443 Y239.0266 I-6.3006 J6.2779
G1 X169.2743 Y302.8606
G3 X166.6572 Y309.1486 I-8.8902 J-0.0115
G3 X160.3628 Y311.75 I-6.2834 J-6.2875
G3 X156.6189 Y311.7158 I-0.0623 J-198.0123
G3 X152.8725 Y311.6128 I3.2115 J-185.0005
G3 X152.8706 Y311.6127 I0.0658 J-1.7488
G3 X150.3774 Y311.5019 I8.4483 J-218.225
G3 X150.3725 Y311.5017 I0.0877 J-1.7478
G1 X150.0535 Y311.4848
G3 X150.0478 Y311.4845 I0.0926 J-1.7475
G1 X149.3674 Y311.4462
G3 X149.359 Y311.4457 I0.0983 J-1.7472
G1 X148.6334 Y311.4014
G3 X148.624 Y311.4008 I0.1066 J-1.7467
G1 X147.8503 Y311.3494
G3 X147.8476 Y311.3492 I0.116 J-1.7461
G3 X143.6616 Y310.9845 I7.5072 J-110.3685
G3 X143.6584 Y310.9841 I0.185 J-1.7402
G1 X143.5288 Y310.9701
G3 X143.5222 Y310.9694 I0.1882 J-1.7399
G1 X142.9877 Y310.9095
G3 X142.9828 Y310.909 I0.1948 J-1.7391
G3 X123.9821 Y307.4942 I17.3681 J-151.2088
G3 X123.2542 Y307.3131 Z-1.6 I36.3687 J-147.794
G3 X122.9398 Y307.2338 I37.0966 J-147.613
G3 X119.8698 Y306.4213 I36.9863 J-145.9563
G3 X119.1472 Y306.2199 Z-3.1 I40.0563 J-145.1438
G3 X103.5686 Y300.9022 I40.7789 J-144.9425
G1 X103.5684 Y300.9021
G3 X68.2526 Y280.7401 I56.5467 J-140.0576
G3 X48.2568 Y262.3692 I92.4261 J-120.6691
G3 X27.2632 Y232.9219 I112.5428 J-102.4412
G1 X27.2633 Y232.922
G1 X27.2632 Y232.9219
G3 X12.4538 Y193.7446 I132.7497 J-72.5683
G3 X12.2901 Y193.0126 Z-1.6 I147.5591 J-33.391
G3 X11.5741 Y189.5866 I147.7228 J-32.659
G3 X11.431 Y188.8503 Z-3.1 I148.4388 J-29.233
G3 X11.1881 Y187.5534 I148.5819 J-28.4967
G3 Y187.5529 I1.7215 J-0.3146
G3 X8.7076 Y160.0849 I150.2416 J-27.4133
G3 X8.9103 Y152.1917 I155.0766 J0.0328
G3 Y152.1906 I1.7477 J0.0894
G3 X9.5203 Y144.3179 I154.313 J7.9959
G3 X9.5204 Y144.3172 I1.7407 J0.1797
G3 X11.9658 Y128.7167 I150.5433 J15.6058
G3 Y128.7163 I1.7124 J0.3608
G3 X21.6705 Y98.7054 I147.4095 J31.0932
G1 Y98.7053
G3 X31.5225 Y80.1063 I138.581 J61.4985
G1 X31.5226 Y80.1062
G3 X48.4599 Y57.7579 I129.745 J80.7386
G1 X48.46 Y57.7578
G1 X48.4599 Y57.7579
G3 X73.7038 Y35.5938 I113.0256 J103.2735
G3 X74.3194 Y35.1653 Z-1.6 I87.7818 J125.4375
G3 X76.8226 Y33.4681 I87.1662 J125.866
G1 X76.8227 Y33.468
G3 X77.2193 Y33.2057 I83.8535 J126.3549
G3 X77.8466 Y32.7944 Z-3.1 I83.4569 J126.6172
G3 X95.4221 Y22.9329 I82.8296 J127.0285
G3 X118.2492 Y14.2413 I64.9238 J136.191
G3 X118.2495 Y14.2412 I0.4883 J1.6805
G3 X145.657 Y8.9734 I42.0466 J144.8294
G1 X145.6571
G1 X145.6569
G1 X145.657
G3 X160.5362 Y8.25 I14.8556 J152.169
G3 X166.8371 Y10.8609 I0.0102 J8.8838
G3 X169.4468 Y17.1603 I-6.2808 J6.2922
G3 X166.8369 Y23.4603 I-8.8859 J0.0095
G3 X160.5358 Y26.0711 I-6.2909 J-6.2738
G2 X148.3004 Y26.6249 I-0.0332 J134.7114
G1 X147.4844 Y26.7016
G1 X146.6143 Y26.7889
G2 X132.8493 Y28.9471 I13.7613 J132.7508
G2 X131.0326 Y29.3435 I29.2387 J138.3529
G2 X102.989 Y39.0673 I29.2995 J129.8008
G1 X102.9889 Y39.0674
G2 X99.7727 Y40.6563 I57.6524 J120.7437
G2 X99.1057 Y40.9994 Z-1.6 I60.8685 J119.1548
G2 X96.0191 Y42.6496 I61.5356 J118.8117
G2 X95.3633 Y43.0137 Z-3.1 I64.6222 J117.1615
G2 X85.7912 Y48.9044 I65.2779 J116.7974
G1 X85.791 Y48.9045
G2 X65.4552 Y65.7379 I75.5144 J111.926
G3 X65.4549 Y65.7382 I-1.2423 J-1.2325
G2 X44.1556 Y93.6992 I95.7384 J95.0218
G2 X35.4991 Y111.8633 I115.9848 J66.4194
G1 Y111.8634
G1 X35.4992 Y111.8632
G1 X35.4991 Y111.8633
G2 X29.0885 Y133.9403 I123.8825 J47.9418
G2 X26.5287 Y160.0847 I131.6565 J26.088
G3 Y160.0861 I-1.75 J0.0007
G2 X27.2973 Y174.5146 I134.8115 J0.053
G1 X27.2974 Y174.5147
G2 X29.4528 Y188.0557 I133.4653 J-14.3031
G2 X29.6078 Y188.7769 Z-1.6247 I131.3098 J-27.8441
G1 Y188.777 Z-1.6245
G1 Y188.7768 Z-1.6249
G1 Y188.7769 Z-1.6247
G2 X29.6105 Y188.7891 Z-1.6 I130.3084 J-28.3952
G2 X30.4008 Y192.1987 I130.3057 J-28.4074
G2 X30.5818 Y192.9266 Z-3.1 I129.5154 J-31.817
G2 X38.7641 Y216.1377 I129.3344 J-32.5449
G3 X38.7642 Y216.138 I-1.5897 J0.7316
G2 X48.0501 Y233.0078 I121.5187 J-55.8983
G1 X48.0502 Y233.008
G2 X63.9981 Y253.1092 I112.7763 J-73.0973
G3 X63.9983 Y253.1095 I-1.2608 J1.2136
G2 X90.6359 Y274.5091 I96.523 J-92.8699
G2 X132.9039 Y291.2473 I69.4041 J-113.5253
G3 X132.9046 Y291.2474 I-0.3569 J1.7132
G2 X144.9282 Y293.1928 I27.4398 J-131.4641
G3 X144.9581 Y293.1965 I-0.2009 J1.7384
G2 X144.994 Y293.2007 I0.138 J-1.0368
G3 X145.0229 Y293.2037 I-0.1708 J1.7416
G2 X145.6455 Y293.2728 I9.1668 J-79.8174
G1 X146.2823 Y293.338
G3 X146.3173 Y293.342 I-0.1784 J1.7409
G3 X146.3597 Y293.3456 I-0.1278 J1.7453
G2 X147.7005 Y293.4659 I8.2623 J-84.5161
G3 X147.745 Y293.4702 I-0.1426 J1.7442
G3 X147.8333 Y293.4774 I-0.0988 J1.7472
G3 X147.8746 Y293.4802 I-0.0959 J1.7474
G1 X148.2917 Y293.513
G3 X148.298 Y293.5135 I-0.1372 J1.7446
G2 X148.7475 Y293.5469 I2.3744 J-28.8641
G3 X148.7797 Y293.5494 I-0.1163 J1.7461
G2 X148.8561 Y293.5548 I0.2432 J-2.8564
G3 X148.8765 Y293.5562 I-0.1018 J1.747
G1 X149.1376 Y293.5744
G2 X151.4767 Y293.7137 I9.0874 J-132.9503
G1 X151.5365 Y271.5122
G1 X151.5385 Y270.7622 Z-1.6
G1 X151.5479 Y267.2622
G1 X151.5499 Y266.5122 Z-3.1
G1 X151.624 Y238.9819
G3 X154.2401 Y232.6933 I8.8839 J0.0074
G3 X160.5351 Y230.093 I6.2812 J6.2861
G1 X160.5515
G3 X160.5528 I0.0 J1.75
G3 X163.6397 Y230.6492 I-0.0068 J8.8815
G0 Z3.0
G0 Y220.7959
G0 Z-0.5
G1 F300.0 Z-3.1
G1 F800.0 X123.736
G1 X122.986 Z-1.6
G1 X119.486
G1 X118.736 Z-3.1
G1 X94.8671
G3 X88.5652 Y218.1872 I-0.011 J-8.8896
G3 X85.9555 Y211.8861 I6.2754 J-6.29
G3 X88.5647 Y205.585 I8.8882 J-0.0103
G3 X94.8672 Y202.9757 I6.2906 J6.2783
G1 X156.5
G1 X157.25 Z-1.6
G1 X160.75
G1 X161.5 Z-3.1
G1 X230.5904
G3 X236.8921 Y205.5856 I0.0102 J8.8882
G3 X239.502 Y211.8863 I-6.2777 J6.2912
G3 X236.8917 Y218.1865 I-8.8869 J0.0089
G3 X230.5904 Y220.7959 I-6.291 J-6.2786
G1 X201.5
G1 X200.75 Z-1.6
G1 X197.25
G1 X196.5 Z-3.1
G1 X163.6397
G0 Z3.0
G0 X162.9541 Y191.8486
G0 Z-0.5
G1 F300.0 Z-3.1
G3 F800.0 X161.5878 Y191.7827 I-0.2254 J-9.5152
G3 X158.7622 Y190.9816 I1.0801 J-9.1939
G3 X158.7606 Y190.9809 I0.7384 J-1.5866
G3 X157.2826 Y190.099 I3.5931 J-7.701
G3 X155.8404 Y188.7247 I4.8618 J-6.5463
G1 X104.3303 Y125.9631
G1 X103.8545 Y125.3833 Z-1.6
G1 X101.6341 Y122.6778
G1 X101.1583 Y122.0981 Z-3.1
G1 X88.6023 Y106.7994
G3 X88.6013 Y106.7982 I1.3527 J-1.1102
G3 X87.4395 Y97.3363 I6.8952 J-5.6489
G3 X95.493 Y92.2381 I8.0507 J3.8073
G1 X194.8534
G1 X195.6034 Z-1.6
G1 X199.1034
G1 X199.8534 Z-3.1
G1 X229.9619
G3 X238.0179 Y97.3362 I0.0036 J8.9085
G3 X238.0184 Y97.3372 I-1.5818 J0.7485
G3 X236.8493 Y106.7994 I-8.0597 J3.8075
G1 X186.6315 Y167.9896
G1 X186.1557 Y168.5693 Z-1.6
G1 X183.9353 Y171.2749
G1 X183.4595 Y171.8546 Z-3.1
G1 X169.6145 Y188.7248
G3 X169.6141 Y188.7252 I-1.3528 J-1.1102
G3 X167.9301 Y190.2725 I-6.3267 J-5.1957
G3 X165.9246 Y191.2987 I-4.9191 J-7.1407
G3 X165.9241 Y191.2989 I-0.588 J-1.6482
G3 X162.9541 Y191.8486 I-3.1954 J-8.9654
G0 Z3.0
M5
M30
