( Made using CamBam - http://www.cambam.co.uk )
( tabla_elektronika_edit_horvat 10/21/2014 12:26:28 PM )
( T0 : 3.5 )
G21 G90 G64 G40
G0 Z3.0
( T0 : 3.5 )
T0 M6
( horvat )
G17
M3 S1000
G0 X147.9895 Y203.6224
G0 Z1.0
G1 F300.0 Z-1.6
G1 F1500.0 X149.5646 Y210.0751
G1 X149.8748 Y211.2907
G3 X149.8758 Y211.2945 I-1.6957 J0.4327
G1 X149.9133 Y211.4429
G3 X149.9142 Y211.4463 I-1.6966 J0.4289
G1 X150.2106 Y212.6291
G3 X150.212 Y212.6348 I-1.6975 J0.4255
G1 X150.4954 Y213.7815
G3 X150.496 Y213.7839 I-1.6989 J0.4198
G3 X151.5678 Y218.2534 I-408.1259 J100.2333
G1 X151.5963 Y218.3748
G3 X151.5971 Y218.3781 I-1.7038 J0.3996
G1 X152.0488 Y220.3211
G3 X152.0498 Y220.3254 I-1.7045 J0.3963
G1 X152.2593 Y221.2367
G3 X152.2601 Y221.2403 I-1.7055 J0.392
G1 X152.6622 Y223.0068
G3 X152.6632 Y223.011 I-1.7064 J0.3884
G1 X153.036 Y224.6681
G3 X153.0368 Y224.6717 I-1.7073 J0.3841
G1 X153.383 Y226.2258
G3 X153.3837 Y226.2289 I-1.7081 J0.3805
G1 X153.7057 Y227.6865
G3 X153.7065 Y227.6903 I-1.7088 J0.3775
G1 X154.3043 Y230.4246
G3 X154.3051 Y230.4285 I-1.7096 J0.3737
G1 X154.8205 Y232.8119
G3 X154.882 Y233.0978 I-11.2698 J2.5746
G1 X155.3219 Y235.1499
G3 X155.3224 Y235.1525 I-1.7111 J0.3668
G1 X156.0906 Y238.7632
G3 X156.0911 Y238.7657 I-1.7117 J0.3641
G1 X157.1327 Y243.6977
G2 X157.1641 Y243.5628 I-504.202 J-117.3921
G1 X157.4067 Y242.5182
G1 X157.4651 Y242.266
G1 X157.5229 Y242.0156
G1 X157.7521 Y241.02
G1 X158.1932 Y239.0893
G1 X158.6038 Y237.2787
G1 X159.3693 Y233.8795
G1 X160.705 Y227.9271
G3 X160.7054 Y227.9256 I1.7075 J0.3832
G1 X160.9568 Y226.8096
G3 X160.9571 Y226.808 I1.7072 J0.3846
G1 X161.4305 Y224.716
G3 X161.4309 Y224.7144 I1.7069 J0.3862
G1 X161.5348 Y224.2569
G3 X161.5351 Y224.2558 I1.7065 J0.3878
G1 X161.7371 Y223.3694
G3 X161.7374 Y223.368 I1.7063 J0.3888
G1 X161.9274 Y222.5372
G3 X161.9278 Y222.5357 I1.7059 J0.3902
G1 X162.1066 Y221.757
G3 X162.1071 Y221.7546 I1.7056 J0.3917
G1 X162.4445 Y220.2949
G3 X162.4452 Y220.2917 I1.7051 J0.394
G1 X162.7419 Y219.019
G3 X162.8758 Y218.4483 I47.5441 J10.8541
G1 X162.9981 Y217.9294
G3 X162.9986 Y217.927 I1.7034 J0.4013
G1 X163.2311 Y216.9461
G3 X163.2317 Y216.9437 I1.7028 J0.4036
G3 X164.0645 Y213.503 I518.6957 J123.7219
G3 X164.0654 Y213.4995 I1.6995 J0.4173
G1 X164.2775 Y212.6433
G3 X164.2789 Y212.6378 I1.6986 J0.4209
G1 X164.6012 Y211.3546
G3 X164.6025 Y211.3492 I1.6973 J0.4263
G1 X164.7584 Y210.7366
G3 X164.7928 Y210.6013 I2.5653 J0.581
G3 X164.8533 Y210.3657 I26.3249 J6.628
G3 X164.8844 Y210.2455 I2.4951 J0.5805
G1 X164.9288 Y210.0731
G1 X166.5034 Y203.6224
G1 X147.9895
G1 F300.0 Z-3.1
G1 F1500.0 X149.5646 Y210.0751
G1 X149.8748 Y211.2907
G3 X149.8758 Y211.2945 I-1.6957 J0.4327
G1 X149.9133 Y211.4429
G3 X149.9142 Y211.4463 I-1.6966 J0.4289
G1 X150.2106 Y212.6291
G3 X150.212 Y212.6348 I-1.6975 J0.4255
G1 X150.3944 Y213.3726
G1 X150.4954 Y213.7815 Z-2.2575
G3 X150.496 Y213.7839 Z-2.2525 I-1.6989 J0.4198
G3 X150.5737 Y214.1008 Z-1.6 I-408.1259 J100.2333
G3 X151.3917 Y217.5039 I-408.2036 J99.9164
G3 X151.5633 Y218.234 Z-3.1 I-409.0216 J96.5134
G3 X151.5678 Y218.2534 I-409.1932 J95.7832
G1 X151.5963 Y218.3748
G3 X151.5971 Y218.3781 I-1.7038 J0.3996
G1 X152.0488 Y220.3211
G3 X152.0498 Y220.3254 I-1.7045 J0.3963
G1 X152.2593 Y221.2367
G3 X152.2601 Y221.2403 I-1.7055 J0.392
G1 X152.6622 Y223.0068
G3 X152.6632 Y223.011 I-1.7064 J0.3884
G1 X153.036 Y224.6681
G3 X153.0368 Y224.6717 I-1.7073 J0.3841
G1 X153.383 Y226.2258
G3 X153.3837 Y226.2289 I-1.7081 J0.3805
G1 X153.7057 Y227.6865
G3 X153.7065 Y227.6903 I-1.7088 J0.3775
G1 X154.3043 Y230.4246
G3 X154.3051 Y230.4285 I-1.7096 J0.3737
G1 X154.8205 Y232.8119
G3 X154.882 Y233.0978 I-11.2698 J2.5746
G1 X155.3219 Y235.1499
G3 X155.3224 Y235.1525 I-1.7111 J0.3668
G1 X156.0906 Y238.7632
G3 X156.0911 Y238.7657 I-1.7117 J0.3641
G1 X157.1327 Y243.6977
G2 X157.1641 Y243.5628 I-504.202 J-117.3921
G1 X157.4067 Y242.5182
G1 X157.4651 Y242.266
G1 X157.5229 Y242.0156
G1 X157.7521 Y241.02
G1 X158.1932 Y239.0893
G1 X158.6038 Y237.2787
G1 X159.3693 Y233.8795
G1 X160.705 Y227.9271
G3 X160.7054 Y227.9256 I1.7075 J0.3832
G1 X160.9239 Y226.9557
G1 X160.9568 Y226.8096 Z-2.8006
G3 X160.9571 Y226.808 Z-2.7973 I1.7072 J0.3846
G1 X161.0893 Y226.2242 Z-1.6
G1 X161.4305 Y224.716
G3 X161.4309 Y224.7144 I1.7069 J0.3862
G1 X161.5348 Y224.2569
G3 X161.5351 Y224.2558 I1.7065 J0.3878
G1 X161.7371 Y223.3694
G3 X161.7374 Y223.368 I1.7063 J0.3888
G1 X161.8648 Y222.8112
G1 X161.9274 Y222.5372 Z-2.162
G3 X161.9278 Y222.5357 Z-2.1651 I1.7059 J0.3902
G1 X162.0324 Y222.0801 Z-3.1
G1 X162.1066 Y221.757
G3 X162.1071 Y221.7546 I1.7056 J0.3917
G1 X162.4445 Y220.2949
G3 X162.4452 Y220.2917 I1.7051 J0.394
G1 X162.7419 Y219.019
G3 X162.8758 Y218.4483 I47.5441 J10.8541
G1 X162.9981 Y217.9294
G3 X162.9986 Y217.927 I1.7034 J0.4013
G1 X163.2311 Y216.9461
G3 X163.2317 Y216.9437 I1.7028 J0.4036
G3 X164.0645 Y213.503 I518.6957 J123.7219
G3 X164.0654 Y213.4995 I1.6995 J0.4173
G1 X164.2775 Y212.6433
G3 X164.2789 Y212.6378 I1.6986 J0.4209
G1 X164.6012 Y211.3546
G3 X164.6025 Y211.3492 I1.6973 J0.4263
G1 X164.7584 Y210.7366
G3 X164.7928 Y210.6013 I2.5653 J0.581
G3 X164.8533 Y210.3657 I26.3249 J6.628
G3 X164.8844 Y210.2455 I2.4951 J0.5805
G1 X164.9288 Y210.0731
G1 X166.5034 Y203.6224
G1 X160.5
G1 X159.75 Z-1.6
G1 X156.25
G1 X155.5 Z-3.1
G1 X147.9895
G0 Z3.0
G0 X242.3943 Y215.8548
G0 Z1.0
G1 F300.0 Z-1.6
G2 F1500.0 X242.2034 Y217.5107 I58.6753 J7.6028
G3 X242.203 Y217.515 I-1.7411 J-0.1759
G2 X242.0418 Y219.3465 I59.5756 J6.1665
G1 X242.0166 Y219.6972
G2 X241.8419 Y224.8928 I74.1832 J5.095
G3 Y224.8978 I-1.75 J0.0024
G2 X242.059 Y230.6444 I73.266 J0.1098
G3 X242.0615 Y230.682 I-1.7448 J0.1346
G3 X242.0652 Y230.7234 I-1.7409 J0.1782
G2 X242.6706 Y235.7339 I59.9093 J-4.6967
G3 X242.6755 Y235.7651 I-1.727 J0.2827
G3 X242.6819 Y235.8018 I-1.7201 J0.3221
G2 X243.6 Y240.1192 I47.693 J-7.8853
G3 X243.6067 Y240.1459 I-1.6933 J0.4418
G3 X243.6154 Y240.1777 I-1.684 J0.476
G2 X244.7735 Y243.8485 I38.0583 J-9.9886
G1 X244.7734 Y243.8484
G1 X244.7735 Y243.8485
G2 X246.0984 Y246.9286 I30.4864 J-11.2888
G2 X247.5255 Y249.4727 I25.0601 J-12.3849
G2 X248.9936 Y251.5374 I20.5198 J-13.0358
G2 X250.4474 Y253.1827 I16.8857 J-13.4553
G1 X250.6191 Y253.3555
G1 X250.792 Y253.5252
G2 X253.6752 Y255.8242 I13.0788 J-13.4452
G2 X256.1021 Y257.1361 I9.7254 J-15.0907
G1 X256.102 Y257.136
G1 X256.1021 Y257.1361
G2 X258.0376 Y257.866 I7.2592 J-16.3179
G2 X261.086 Y258.5537 I5.83 J-18.7426
G2 X264.2341 Y258.7732 I3.1146 J-21.9812
G3 X264.2381 I0.0026 J1.75
G2 X267.1025 Y258.5924 I0.017 J-22.5085
G2 X269.7037 Y258.0783 I-2.4967 J-19.4717
G3 X269.7047 Y258.078 I0.4544 J1.69
G2 X274.2201 Y256.1785 I-4.6751 J-17.4298
G2 X277.602 Y253.5952 I-9.4936 J-15.9337
G2 X280.0594 Y250.7668 I-14.8744 J-15.4053
G3 X280.0597 Y250.7665 I1.4164 J1.0278
G2 X281.8258 Y247.9689 I-20.6625 J-15.0006
G2 X283.0973 Y245.3387 I-26.8904 J-14.6219
G3 X283.0985 Y245.3358 I1.6101 J0.6856
G2 X283.5776 Y244.1501 I-28.8013 J-12.325
G3 X283.5783 Y244.1482 I1.6356 J0.6222
G2 X284.3661 Y241.8641 I-34.6818 J-13.24
G2 X285.4208 Y237.7422 I-42.3082 J-13.0216
G1 X285.5025 Y237.3387
G2 X285.6456 Y236.5866 I-35.0088 J-7.0496
G3 X285.6466 Y236.581 I1.7226 J0.3086
G2 X285.7721 Y235.8642 I-50.6493 J-9.242
G2 X286.4231 Y230.4147 I-58.7823 J-9.785
G3 X286.4232 Y230.4132 I1.7454 J0.1273
G2 X286.6225 Y224.8977 I-73.2992 J-5.4109
G3 X286.6227 Y224.8723 I1.75 J-0.0025
G3 Y224.8265 I1.7498 J-0.0239
G3 X286.6226 Y224.7807 I1.7498 J-0.0249
G3 X286.6225 Y224.7349 I1.7498 J-0.0258
G3 X286.6224 Y224.6892 I1.7498 J-0.0268
G3 X286.6223 Y224.6435 I1.7498 J-0.0278
G3 X286.6221 Y224.5979 I1.7498 J-0.0287
G3 X286.622 Y224.5524 I1.7497 J-0.0297
G3 X286.6218 Y224.5068 I1.7497 J-0.0307
G3 X286.6215 Y224.4613 I1.7497 J-0.0316
G3 X286.6213 Y224.4159 I1.7497 J-0.0326
G3 X286.621 Y224.3705 I1.7497 J-0.0336
G3 X286.6207 Y224.3251 I1.7497 J-0.0345
G3 X286.6204 Y224.2798 I1.7496 J-0.0355
G3 X286.62 Y224.2345 I1.7496 J-0.0365
G3 X286.6196 Y224.1893 I1.7496 J-0.0374
G3 X286.6192 Y224.1639 I1.7496 J-0.0384
G2 X286.3466 Y218.409 I-72.2387 J0.5388
G2 X286.0738 Y215.8861 I-64.5525 J5.702
G3 X286.0696 Y215.8502 I1.7358 J-0.2221
G3 X286.06 Y215.7763 I1.7302 J-0.2623
G3 X286.0545 Y215.7369 I1.7299 J-0.2644
G2 X285.2434 Y211.0707 I-54.3277 J7.0398
G2 X284.7541 Y209.0528 I-45.7275 J10.019
G3 X284.7533 Y209.0496 I1.6912 J-0.45
G2 X283.5859 Y205.3438 I-40.0066 J10.5656
G2 X283.2836 Y204.5517 I-32.6618 J12.0094
G3 X283.2822 Y204.5479 I1.6273 J-0.6438
G2 X281.9348 Y201.5608 I-30.9237 J12.1511
G1 X281.8517 Y201.4001
G1 X281.7689 Y201.2421
G2 X281.0813 Y200.0127 I-28.8408 J15.3222
G2 X280.383 Y198.8955 I-25.2993 J15.0358
G2 X278.9333 Y196.9175 I-20.4658 J13.4801
G3 X278.9322 Y196.9161 I1.3579 J-1.1039
G2 X277.5107 Y195.334 I-16.4035 J13.3072
G3 X277.5077 Y195.3308 I1.2413 J-1.2336
G2 X274.6717 Y192.9655 I-13.7191 J13.5659
G2 X269.7172 Y190.6221 I-9.8937 J14.5082
G2 X267.0161 Y190.0469 I-5.2383 J17.9684
G2 X264.2415 Y189.8613 I-2.751 J20.2996
G1 X264.0518 Y189.8621
G2 X262.5999 Y189.9243 I0.2303 J22.3671
G2 X259.8491 Y190.3375 I1.4512 J19.0199
G3 X259.8475 Y190.3379 I-0.3855 J-1.707
G2 X255.0555 Y192.1833 I3.8584 J17.1636
G1 X255.0552 Y192.1835
G2 X253.1861 Y193.3985 I8.7743 J15.5431
G3 X253.1857 Y193.3988 I-1.0435 J-1.4048
G2 X251.5749 Y194.7361 I11.5012 J15.4927
G1 X251.4788 Y194.8255
G3 X251.4781 Y194.8262 I-1.1928 J-1.2806
G2 X251.1339 Y195.1567 I10.3273 J11.0999
G3 X251.1291 Y195.1615 I-1.2318 J-1.2431
G2 X249.8149 Y196.5781 I14.7251 J14.9771
G2 X247.6737 Y199.5346 I18.7476 J15.8316
G1 X247.4573 Y199.8898
G2 X246.6831 Y201.2672 I25.3209 J15.1378
G2 X246.0195 Y202.6031 I29.8882 J15.6794
G1 X245.8685 Y202.9307
G2 X245.3255 Y204.192 I27.8983 J12.7568
G3 X245.3246 Y204.1943 I-1.6225 J-0.6558
G1 X245.2928 Y204.2726
G2 X244.4045 Y206.7079 I34.4434 J13.9433
G3 X244.4037 Y206.7102 I-1.664 J-0.542
G2 X243.7524 Y208.8966 I40.5679 J13.276
G3 X243.7513 Y208.9004 I-1.6899 J-0.4546
G2 X243.2731 Y210.8374 I41.8673 J11.3645
G1 X243.1774 Y211.2719
G1 X243.0894 Y211.6883
G1 X243.0061 Y212.0991
G1 Y212.0992
G1 Y212.0991
G2 X242.9323 Y212.4782 I24.6581 J4.998
G3 X242.9313 Y212.4833 I-1.7203 J-0.3213
G1 X242.913 Y212.5798
G2 X242.6489 Y214.0949 I58.9075 J11.0498
G1 X242.5967 Y214.4273
G1 X242.4997 Y215.0814
G2 X242.3943 Y215.8548 I58.5699 J8.3762
G1 F300.0 Z-3.1
G2 F1500.0 X242.2034 Y217.5107 I58.6753 J7.6028
G3 X242.203 Y217.515 I-1.7411 J-0.1759
G2 X242.0418 Y219.3465 I59.5756 J6.1665
G1 X242.0166 Y219.6972
G2 X241.8419 Y224.8928 I74.1832 J5.095
G3 Y224.8978 I-1.75 J0.0024
G2 X242.059 Y230.6444 I73.266 J0.1098
G3 X242.0615 Y230.682 I-1.7448 J0.1346
G3 X242.0652 Y230.7234 I-1.7409 J0.1782
G2 X242.6706 Y235.7339 I59.9093 J-4.6967
G3 X242.6755 Y235.7651 I-1.727 J0.2827
G3 X242.6819 Y235.8018 I-1.7201 J0.3221
G2 X243.6 Y240.1192 I47.693 J-7.8853
G3 X243.6067 Y240.1459 I-1.6933 J0.4418
G3 X243.6154 Y240.1777 I-1.684 J0.476
G2 X244.7735 Y243.8485 I38.0583 J-9.9886
G1 X244.7734 Y243.8484
G1 X244.7735 Y243.8485
G2 X246.0984 Y246.9286 I30.4864 J-11.2888
G2 X247.5255 Y249.4727 I25.0601 J-12.3849
G2 X248.9936 Y251.5374 I20.5198 J-13.0358
G2 X250.4474 Y253.1827 I16.8857 J-13.4553
G1 X250.6191 Y253.3555
G1 X250.792 Y253.5252
G2 X253.6752 Y255.8242 I13.0788 J-13.4452
G2 X256.1021 Y257.1361 I9.7254 J-15.0907
G1 X256.102 Y257.136
G1 X256.1021 Y257.1361
G2 X258.0376 Y257.866 I7.2592 J-16.3179
G2 X261.086 Y258.5537 I5.83 J-18.7426
G2 X261.727 Y258.635 I3.1146 J-21.9812
G2 X262.4771 Y258.7062 Z-1.6 I2.4736 J-22.0625
G2 X264.2341 Y258.7732 I1.7235 J-22.1338
G3 X264.2381 I0.0026 J1.75
G2 X265.9771 Y258.7072 I0.017 J-22.5085
G2 X266.727 Y258.6371 Z-3.1 I-1.7221 J-22.4425
G2 X267.1025 Y258.5924 I-2.472 J-22.3723
G2 X269.7037 Y258.0783 I-2.4967 J-19.4717
G3 X269.7047 Y258.078 I0.4544 J1.69
G2 X274.2201 Y256.1785 I-4.6751 J-17.4298
G2 X277.602 Y253.5952 I-9.4936 J-15.9337
G2 X280.0594 Y250.7668 I-14.8744 J-15.4053
G3 X280.0597 Y250.7665 I1.4164 J1.0278
G2 X281.8258 Y247.9689 I-20.6625 J-15.0006
G2 X283.0973 Y245.3387 I-26.8904 J-14.6219
G3 X283.0985 Y245.3358 I1.6101 J0.6856
G2 X283.5776 Y244.1501 I-28.8013 J-12.325
G3 X283.5783 Y244.1482 I1.6356 J0.6222
G2 X284.3661 Y241.8641 I-34.6818 J-13.24
G2 X285.4208 Y237.7422 I-42.3082 J-13.0216
G1 X285.5025 Y237.3387
G2 X285.6456 Y236.5866 I-35.0088 J-7.0496
G3 X285.6466 Y236.581 I1.7226 J0.3086
G2 X285.7721 Y235.8642 I-50.6493 J-9.242
G2 X286.4231 Y230.4147 I-58.7823 J-9.785
G3 X286.4232 Y230.4132 I1.7454 J0.1273
G2 X286.6225 Y224.8977 I-73.2992 J-5.4109
G3 X286.6227 Y224.8723 I1.75 J-0.0025
G3 Y224.8265 I1.7498 J-0.0239
G3 X286.6226 Y224.7807 I1.7498 J-0.0249
G3 X286.6225 Y224.7349 I1.7498 J-0.0258
G3 X286.6224 Y224.6892 I1.7498 J-0.0268
G3 X286.6223 Y224.6435 I1.7498 J-0.0278
G3 X286.6221 Y224.5979 I1.7498 J-0.0287
G3 X286.622 Y224.5524 I1.7497 J-0.0297
G3 X286.6218 Y224.5068 I1.7497 J-0.0307
G3 X286.6215 Y224.4613 I1.7497 J-0.0316
G3 X286.6213 Y224.4159 I1.7497 J-0.0326
G3 X286.621 Y224.3705 I1.7497 J-0.0336
G3 X286.6207 Y224.3251 I1.7497 J-0.0345
G3 X286.6204 Y224.2798 I1.7496 J-0.0355
G3 X286.62 Y224.2345 I1.7496 J-0.0365
G3 X286.6196 Y224.1893 I1.7496 J-0.0374
G3 X286.6192 Y224.1639 I1.7496 J-0.0384
G2 X286.3466 Y218.409 I-72.2387 J0.5388
G2 X286.0738 Y215.8861 I-64.5525 J5.702
G3 X286.0696 Y215.8502 I1.7358 J-0.2221
G3 X286.06 Y215.7763 I1.7302 J-0.2623
G3 X286.0545 Y215.7369 I1.7299 J-0.2644
G2 X285.2853 Y211.2641 I-54.3277 J7.0398
G2 X285.2434 Y211.0707 Z-2.7041 I-53.5585 J11.5126
G2 X285.1219 Y210.5314 Z-1.6 I-45.7275 J10.019
G2 X284.7541 Y209.0528 I-45.606 J10.5582
G3 X284.7533 Y209.0496 I1.6912 J-0.45
G2 X284.2039 Y207.1539 I-40.0066 J10.5656
G2 X283.9713 Y206.4398 Z-3.1 I-39.4572 J12.4614
G2 X283.5859 Y205.3438 I-39.2246 J13.1754
G2 X283.2836 Y204.5517 I-32.6618 J12.0094
G3 X283.2822 Y204.5479 I1.6273 J-0.6438
G2 X281.9348 Y201.5608 I-30.9237 J12.1511
G1 X281.8517 Y201.4001
G1 X281.7689 Y201.2421
G2 X281.0813 Y200.0127 I-28.8408 J15.3222
G2 X280.383 Y198.8955 I-25.2993 J15.0358
G2 X278.9333 Y196.9175 I-20.4658 J13.4801
G3 X278.9322 Y196.9161 I1.3579 J-1.1039
G2 X277.5107 Y195.334 I-16.4035 J13.3072
G3 X277.5077 Y195.3308 I1.2413 J-1.2336
G2 X274.6717 Y192.9655 I-13.7191 J13.5659
G2 X269.7172 Y190.6221 I-9.8937 J14.5082
G2 X267.0161 Y190.0469 I-5.2383 J17.9684
G2 X264.2415 Y189.8613 I-2.751 J20.2996
G1 X264.0518 Y189.8621
G2 X262.5999 Y189.9243 I0.2303 J22.3671
G2 X259.8491 Y190.3375 I1.4512 J19.0199
G3 X259.8475 Y190.3379 I-0.3855 J-1.707
G2 X255.0555 Y192.1833 I3.8584 J17.1636
G1 X255.0552 Y192.1835
G2 X253.1861 Y193.3985 I8.7743 J15.5431
G3 X253.1857 Y193.3988 I-1.0435 J-1.4048
G2 X251.5749 Y194.7361 I11.5012 J15.4927
G1 X251.4788 Y194.8255
G3 X251.4781 Y194.8262 I-1.1928 J-1.2806
G2 X251.1339 Y195.1567 I10.3273 J11.0999
G3 X251.1291 Y195.1615 I-1.2318 J-1.2431
G2 X249.8149 Y196.5781 I14.7251 J14.9771
G2 X247.6737 Y199.5346 I18.7476 J15.8316
G1 X247.4573 Y199.8898
G2 X246.6831 Y201.2672 I25.3209 J15.1378
G2 X246.0195 Y202.6031 I29.8882 J15.6794
G1 X245.8685 Y202.9307
G2 X245.3255 Y204.192 I27.8983 J12.7568
G3 X245.3246 Y204.1943 I-1.6225 J-0.6558
G1 X245.2928 Y204.2726
G2 X244.4948 Y206.4341 I34.4434 J13.9433
G2 X244.4045 Y206.7079 Z-2.5234 I35.2414 J11.7818
G3 X244.4037 Y206.7102 Z-2.5185 I-1.664 J-0.542
G2 X244.263 Y207.1483 Z-1.6 I40.5679 J13.276
G2 X243.7524 Y208.8966 I40.7087 J12.8379
G3 X243.7513 Y208.9004 I-1.6899 J-0.4546
G2 X243.3438 Y210.5254 I41.8673 J11.3645
G2 X243.2731 Y210.8374 Z-2.2397 I42.2749 J9.7395
G1 X243.1804 Y211.2582 Z-3.1
G1 X243.1774 Y211.2719
G1 X243.0894 Y211.6883
G1 X243.0061 Y212.0991
G1 Y212.0992
G1 Y212.0991
G2 X242.9323 Y212.4782 I24.6581 J4.998
G3 X242.9313 Y212.4833 I-1.7203 J-0.3213
G1 X242.913 Y212.5798
G2 X242.6489 Y214.0949 I58.9075 J11.0498
G1 X242.5967 Y214.4273
G1 X242.4997 Y215.0814
G2 X242.3943 Y215.8548 I58.5699 J8.3762
G0 Z3.0
G0 X178.159 Y104.2304
G0 Z1.0
G1 F300.0 Z-1.6
G2 F1500.0 X179.1051 Y103.6144 I-5.1235 J-8.9033
G3 X179.1061 Y103.6137 I1.034 J1.4118
G2 X180.0835 Y102.7866 I-5.3358 J-7.2966
G2 X181.4428 Y101.0516 I-5.8652 J-5.9952
G2 X182.1622 Y99.5302 I-8.1395 J-4.7794
G3 X182.1654 Y99.5214 I1.6424 J0.604
G2 X182.367 Y98.9222 I-8.9132 J-3.3321
G3 X182.3679 Y98.9191 I1.6763 J0.5026
G2 X182.6498 Y97.8053 I-12.138 J-3.6646
G1 X182.6611 Y97.7501
G1 X182.6714 Y97.6981
G2 X182.9065 Y96.0059 I-15.5288 J-3.0193
G3 X182.9067 Y96.0025 I1.7438 J0.1468
G2 X182.9611 Y95.1347 I-18.6053 J-1.6019
G3 X182.9615 Y95.1252 I1.7486 J0.0688
G2 X182.9742 Y94.7019 I-14.2106 J-0.6362
G3 X182.9743 Y94.696 I1.7498 J0.0262
G1 X182.9752 Y94.6451
G1 X182.9786 Y94.2436
G2 X182.9114 Y92.534 I-20.9086 J-0.034
G3 X182.9112 Y92.5314 I1.7444 J-0.1402
G2 X182.7157 Y90.9523 I-17.8629 J1.4099
G3 X182.7152 Y90.9493 I1.7255 J-0.2919
G2 X182.4032 Y89.5138 I-15.0362 J2.5165
G3 X182.4016 Y89.508 I1.6902 J-0.4537
G2 X181.4448 Y86.9813 I-12.6795 J3.3568
G2 X178.5858 Y83.3774 I-10.1421 J5.1097
G2 X177.8988 Y82.8419 I-8.4191 J10.0939
G2 X176.5124 Y81.9646 I-8.0718 J11.2213
G2 X176.1863 Y81.79 I-12.2408 J22.4749
G2 X174.907 Y81.1982 I-7.2689 J14.033
G2 X172.5194 Y80.404 I-7.1979 J17.6542
G3 X172.5178 Y80.4036 I0.4415 J-1.6934
G2 X170.644 Y79.9922 I-6.0904 J23.2668
G1 X170.4648 Y79.9608
G1 X170.1083 Y79.9021
G2 X168.808 Y79.7275 I-4.1593 J26.0527
G3 X168.8053 Y79.7272 I0.1896 J-1.7397
G2 X166.8116 Y79.5666 I-3.698 J33.4443
G2 X164.7951 Y79.5162 I-2.0219 J40.5377
G1 X164.795
G1 X164.7952
G1 X164.7951
G1 X154.6639
G1 Y106.6818
G1 X164.7952
G3 X164.7987 I0.0 J1.75
G2 X168.1154 Y106.5953 I0.1183 J-59.0603
G1 X168.4889 Y106.5731
G2 X171.3377 Y106.2954 I-2.3505 J-38.8696
G3 X171.34 Y106.2951 I0.2337 J1.7343
G2 X173.7883 Y105.8549 I-3.6339 J-27.2429
G3 X173.791 Y105.8543 I0.3873 J1.7066
G2 X175.844 Y105.2703 I-4.2212 J-18.7385
G2 X176.7093 Y104.9407 I-5.7618 J-16.4265
G2 X177.4814 Y104.5906 I-5.0646 J-12.1972
G3 X177.4838 Y104.5895 I0.7734 J1.5698
G2 X177.8301 Y104.4118 I-4.8114 J-9.8032
G3 X177.8384 Y104.4073 I0.8265 J1.5425
G2 X178.159 Y104.2304 I-4.8029 J-9.0802
G1 F300.0 Z-3.1
G2 F1500.0 X179.1051 Y103.6144 I-5.1235 J-8.9033
G3 X179.1061 Y103.6137 I1.034 J1.4118
G2 X180.0835 Y102.7866 I-5.3358 J-7.2966
G2 X181.4428 Y101.0516 I-5.8652 J-5.9952
G2 X182.1622 Y99.5302 I-8.1395 J-4.7794
G3 X182.1654 Y99.5214 I1.6424 J0.604
G2 X182.367 Y98.9222 I-8.9132 J-3.3321
G3 X182.3679 Y98.9191 I1.6763 J0.5026
G2 X182.6498 Y97.8053 I-12.138 J-3.6646
G1 X182.6611 Y97.7501
G1 X182.6714 Y97.6981
G2 X182.9065 Y96.0059 I-15.5288 J-3.0193
G3 X182.9067 Y96.0025 I1.7438 J0.1468
G2 X182.9611 Y95.1347 I-18.6053 J-1.6019
G3 X182.9615 Y95.1252 I1.7486 J0.0688
G2 X182.9742 Y94.7019 I-14.2106 J-0.6362
G3 X182.9743 Y94.696 I1.7498 J0.0262
G1 X182.9752 Y94.6451
G1 X182.9786 Y94.2436
G2 X182.9114 Y92.534 I-20.9086 J-0.034
G3 X182.9112 Y92.5314 I1.7444 J-0.1402
G2 X182.7157 Y90.9523 I-17.8629 J1.4099
G3 X182.7152 Y90.9493 I1.7255 J-0.2919
G2 X182.4032 Y89.5138 I-15.0362 J2.5165
G3 X182.4016 Y89.508 I1.6902 J-0.4537
G2 X181.4448 Y86.9813 I-12.6795 J3.3568
G2 X178.5858 Y83.3774 I-10.1421 J5.1097
G2 X178.2444 Y83.1021 I-8.4191 J10.0939
G2 X177.8988 Y82.8419 Z-2.2348 I-8.0776 J10.3692
G2 X177.6312 Y82.6542 Z-1.6 I-8.0718 J11.2213
G2 X176.5124 Y81.9646 I-7.8042 J11.409
G2 X176.1863 Y81.79 I-12.2408 J22.4749
G2 X174.907 Y81.1982 I-7.2689 J14.033
G2 X174.5224 Y81.0462 I-7.1979 J17.6542
G2 X173.8109 Y80.79 Z-3.1 I-6.8132 J17.8062
G2 X172.5194 Y80.404 I-6.1018 J18.0623
G3 X172.5178 Y80.4036 I0.4415 J-1.6934
G2 X170.644 Y79.9922 I-6.0904 J23.2668
G1 X170.4648 Y79.9608
G1 X170.1083 Y79.9021
G2 X168.808 Y79.7275 I-4.1593 J26.0527
G3 X168.8053 Y79.7272 I0.1896 J-1.7397
G2 X166.8116 Y79.5666 I-3.698 J33.4443
G2 X164.7951 Y79.5162 I-2.0219 J40.5377
G1 X164.795
G1 X164.7952
G1 X164.7951
G1 X154.6639
G1 Y87.2533
G1 Y88.0033 Z-1.6
G1 Y91.5033
G1 Y92.2533 Z-3.1
G1 Y106.6818
G1 X164.7952
G3 X164.7987 I0.0 J1.75
G2 X165.4293 Y106.6797 I0.1183 J-59.0603
G2 X166.1797 Y106.6684 Z-1.6 I-0.5123 J-59.0582
G2 X168.1154 Y106.5953 I-1.2627 J-59.0469
G1 X168.4889 Y106.5731
G2 X169.6748 Y106.4832 I-2.3505 J-38.8696
G2 X170.422 Y106.4078 Z-3.1 I-3.5364 J-38.7797
G2 X171.3377 Y106.2954 I-4.2835 J-38.7043
G3 X171.34 Y106.2951 I0.2337 J1.7343
G2 X173.7883 Y105.8549 I-3.6339 J-27.2429
G3 X173.791 Y105.8543 I0.3873 J1.7066
G2 X175.844 Y105.2703 I-4.2212 J-18.7385
G2 X176.7093 Y104.9407 I-5.7618 J-16.4265
G2 X177.4814 Y104.5906 I-5.0646 J-12.1972
G3 X177.4838 Y104.5895 I0.7734 J1.5698
G2 X177.8301 Y104.4118 I-4.8114 J-9.8032
G3 X177.8384 Y104.4073 I0.8265 J1.5425
G2 X178.159 Y104.2304 I-4.8029 J-9.0802
G0 Z3.0
G0 X183.7715 Y134.8123
G0 Z1.0
G1 F300.0 Z-1.6
G3 F1500.0 X180.216 Y135.3771 I-13.547 J-73.8163
G3 X180.2128 Y135.3775 I-0.233 J-1.7344
G1 X179.8124 Y135.4305
G3 X179.7996 Y135.4322 I-0.2298 J-1.7348
G1 X179.023 Y135.5292
G3 X179.007 Y135.5311 I-0.217 J-1.7365
G1 X178.2782 Y135.6154
G3 X178.2686 Y135.6165 I-0.201 J-1.7384
G3 X172.6808 Y136.0637 I-10.3131 J-93.736
G3 X172.6759 Y136.0639 I-0.0877 J-1.7478
G1 X171.989 Y136.0964
G3 X171.9779 Y136.0969 I-0.0828 J-1.748
G1 X171.3766 Y136.1216
G3 X171.3723 Y136.1218 I-0.0718 J-1.7485
G3 X167.0921 Y136.2017 I-4.1495 J-107.5595
G1 X120.0
G3 X118.25 Y134.4517 I0.0 J-1.75
G1 Y10.0
G3 X120.0 Y8.25 I1.75 J0.0
G1 X152.9139
G3 X154.6639 Y10.0 I0.0 J1.75
G1 Y49.9963
G1 X164.4938
G1 X185.461 Y9.2001
G3 X187.0175 Y8.25 I1.5565 J0.7999
G1 X223.7697
G3 X225.297 Y10.8542 I0.0 J1.75
G1 X199.161 Y57.5842
G3 X202.405 Y59.7124 I-22.0633 J37.1667
G3 X202.5608 Y59.8259 I-2.7062 J3.8821
G3 X204.5037 Y61.3408 I-23.408 J32.0232
G3 X207.9006 Y64.528 I-24.5567 J29.5764
G3 X207.9014 Y64.5289 I-1.2725 J1.2013
G3 X212.8067 Y71.0367 I-26.9916 J25.4472
G3 X214.2588 Y73.726 I-31.9789 J19.0046
G3 X214.259 Y73.7263 I-1.5727 J0.7675
G3 X216.269 Y78.6595 I-35.8099 J17.4668
G3 X216.2694 Y78.6606 I-1.6612 J0.5505
G3 X217.3456 Y82.4903 I-41.585 J13.7524
G3 X217.3472 Y82.4974 I-1.7045 J0.3965
G1 X217.4269 Y82.8466
G3 X217.429 Y82.8559 I-1.7062 J0.3893
G3 X218.3427 Y88.5376 I-47.312 J10.5232
G3 X218.3431 Y88.5408 I-1.7412 J0.1748
G1 X218.3771 Y88.886
G3 X218.3779 Y88.8947 I-1.7416 J0.1716
G3 X218.6257 Y94.2518 I-56.8716 J5.3149
G3 X218.4428 Y98.9763 I-58.7437 J0.0921
G3 X218.4328 Y99.1016 I-2.487 J-0.137
G3 X217.8782 Y103.5231 I-50.304 J-4.0642
G3 X216.9682 Y107.6518 I-43.1896 J-7.3541
G1 Y107.6519
G3 X215.7316 Y111.4335 I-37.7888 J-10.2639
G3 X215.7314 Y111.4339 I-1.6335 J-0.6277
G3 X214.2088 Y114.8487 I-33.3664 J-12.8316
G1 X214.2087 Y114.8488
G3 X213.3712 Y116.3893 I-29.9101 J-15.2628
G3 X209.394 Y121.8865 I-28.5041 J-16.435
G3 X209.3921 Y121.8887 I-1.3045 J-1.1665
G3 X208.3857 Y122.9645 I-26.2896 J-23.5854
G3 X207.8763 Y123.4741 I-20.886 J-20.3651
G3 X203.5616 Y127.0585 I-24.3961 J-24.9779
G3 X203.5575 Y127.0613 I-1.0065 J-1.4316
G1 X203.3191 Y127.2279
G3 X203.311 Y127.2336 I-1.0024 J-1.4344
G3 X199.1788 Y129.7278 I-22.4207 J-32.4748
G3 X195.3763 Y131.4954 I-20.6627 J-39.4755
G3 X193.6729 Y132.1573 I-18.1651 J-44.2245
G3 X193.6708 Y132.1581 I-0.6026 J-1.643
G3 X192.0639 Y132.719 I-20.2785 J-55.5166
G3 X192.0548 Y132.722 I-0.5528 J-1.6604
G1 X191.687 Y132.8422
G3 X191.6748 Y132.8461 I-0.5437 J-1.6634
G1 X191.3119 Y132.9619
G3 X191.3072 Y132.9634 I-0.5316 J-1.6673
G3 X188.3293 Y133.8134 I-16.7777 J-53.136
G3 X188.3229 Y133.815 I-0.4334 J-1.6955
G1 X187.6867 Y133.9751
G3 X187.6687 Y133.9795 I-0.427 J-1.6971
G1 X187.0508 Y134.1281
G3 X187.0405 Y134.1305 I-0.409 J-1.7015
G3 X184.5706 Y134.6612 I-15.7664 J-67.3672
G3 X184.5687 Y134.6615 I-0.3363 J-1.7174
G3 X183.7715 Y134.8123 I-14.3442 J-73.6655
G1 F300.0 Z-3.1
G3 F1500.0 X180.216 Y135.3771 I-13.547 J-73.8163
G3 X180.2128 Y135.3775 I-0.233 J-1.7344
G1 X179.8124 Y135.4305
G3 X179.7996 Y135.4322 I-0.2298 J-1.7348
G1 X179.023 Y135.5292
G3 X179.007 Y135.5311 I-0.217 J-1.7365
G1 X178.2782 Y135.6154
G3 X178.2686 Y135.6165 I-0.201 J-1.7384
G3 X172.6808 Y136.0637 I-10.3131 J-93.736
G3 X172.6759 Y136.0639 I-0.0877 J-1.7478
G1 X171.989 Y136.0964
G3 X171.9779 Y136.0969 I-0.0828 J-1.748
G1 X171.3766 Y136.1216
G3 X171.3723 Y136.1218 I-0.0718 J-1.7485
G3 X167.0921 Y136.2017 I-4.1495 J-107.5595
G1 X120.0
G3 X118.25 Y134.4517 I0.0 J-1.75
G1 Y81.5
G1 Y80.75 Z-1.6
G1 Y77.25
G1 Y76.5 Z-3.1
G1 Y10.0
G3 X120.0 Y8.25 I1.75 J0.0
G1 X152.9139
G3 X154.6639 Y10.0 I0.0 J1.75
G1 Y49.9963
G1 X164.4938
G1 X185.461 Y9.2001
G3 X187.0175 Y8.25 I1.5565 J0.7999
G1 X197.5
G1 X198.25 Z-1.6
G1 X201.75
G1 X202.5 Z-3.1
G1 X223.7697
G3 X225.297 Y10.8542 I0.0 J1.75
G1 X199.161 Y57.5842
G3 X202.405 Y59.7124 I-22.0633 J37.1667
G3 X202.5608 Y59.8259 I-2.7062 J3.8821
G3 X204.5037 Y61.3408 I-23.408 J32.0232
G3 X207.9006 Y64.528 I-24.5567 J29.5764
G3 X207.9014 Y64.5289 I-1.2725 J1.2013
G3 X212.8067 Y71.0367 I-26.9916 J25.4472
G3 X214.2588 Y73.726 I-31.9789 J19.0046
G3 X214.259 Y73.7263 I-1.5727 J0.7675
G3 X216.269 Y78.6595 I-35.8099 J17.4668
G3 X216.2694 Y78.6606 I-1.6612 J0.5505
G3 X217.3456 Y82.4903 I-41.585 J13.7524
G3 X217.3472 Y82.4974 I-1.7045 J0.3965
G1 X217.4269 Y82.8466
G3 X217.429 Y82.8559 I-1.7062 J0.3893
G3 X218.3427 Y88.5376 I-47.312 J10.5232
G3 X218.3431 Y88.5408 I-1.7412 J0.1748
G1 X218.3771 Y88.886
G3 X218.3779 Y88.8947 I-1.7416 J0.1716
G3 X218.6257 Y94.2518 I-56.8716 J5.3149
G3 X218.4428 Y98.9763 I-58.7437 J0.0921
G3 X218.4328 Y99.1016 I-2.487 J-0.137
G3 X217.8782 Y103.5231 I-50.304 J-4.0642
G3 X216.9682 Y107.6518 I-43.1896 J-7.3541
G1 Y107.6519
G3 X215.7316 Y111.4335 I-37.7888 J-10.2639
G3 X215.7314 Y111.4339 I-1.6335 J-0.6277
G3 X214.2088 Y114.8487 I-33.3664 J-12.8316
G1 X214.2087 Y114.8488
G3 X213.3712 Y116.3893 I-29.9101 J-15.2628
G3 X209.394 Y121.8865 I-28.5041 J-16.435
G3 X209.3921 Y121.8887 I-1.3045 J-1.1665
G3 X209.0873 Y122.2241 I-26.2896 J-23.5854
G3 X208.5724 Y122.7716 Z-1.6 I-25.9847 J-23.9209
G3 X208.3857 Y122.9645 I-25.4699 J-24.4683
G3 X207.8763 Y123.4741 I-20.886 J-20.3651
G3 X206.0173 Y125.1635 I-24.3961 J-24.9779
G3 X205.4382 Y125.6423 Z-3.1 I-22.5371 J-26.6673
G3 X203.5616 Y127.0585 I-21.958 J-27.1461
G3 X203.5575 Y127.0613 I-1.0065 J-1.4316
G1 X203.3191 Y127.2279
G3 X203.311 Y127.2336 I-1.0024 J-1.4344
G3 X199.1788 Y129.7278 I-22.4207 J-32.4748
G3 X195.3763 Y131.4954 I-20.6627 J-39.4755
G3 X193.6729 Y132.1573 I-18.1651 J-44.2245
G3 X193.6708 Y132.1581 I-0.6026 J-1.643
G3 X192.0639 Y132.719 I-20.2785 J-55.5166
G3 X192.0548 Y132.722 I-0.5528 J-1.6604
G1 X191.687 Y132.8422
G3 X191.6748 Y132.8461 I-0.5437 J-1.6634
G1 X191.3119 Y132.9619
G3 X191.3072 Y132.9634 I-0.5316 J-1.6673
G3 X188.3293 Y133.8134 I-16.7777 J-53.136
G3 X188.3229 Y133.815 I-0.4334 J-1.6955
G1 X187.6867 Y133.9751
G3 X187.6687 Y133.9795 I-0.427 J-1.6971
G1 X187.0508 Y134.1281
G3 X187.0405 Y134.1305 I-0.409 J-1.7015
G3 X184.5706 Y134.6612 I-15.7664 J-67.3672
G3 X184.5687 Y134.6615 I-0.3363 J-1.7174
G3 X183.7715 Y134.8123 I-14.3442 J-73.6655
G0 Z3.0
G0 Y148.25
G0 Z1.0
G1 F300.0 Z-1.6
G1 F1500.0 X215.6419
G3 X217.316 Y150.5099 I0.0 J1.75
G1 X179.408 Y274.9616
G3 X177.7339 Y276.2017 I-1.6741 J-0.5099
G1 X137.9079
G3 X136.2338 Y274.9616 I0.0 J-1.75
G1 X98.3259 Y150.5099
G3 X100.0 Y148.25 I1.6741 J-0.5099
G1 X133.6964
G3 X135.4012 Y149.6047 I0.0 J1.75
G1 X141.2144 Y174.677
G1 X173.2785
G1 X179.0916 Y149.6047
G3 X180.7964 Y148.25 I1.7048 J0.3953
G1 X183.7715
G1 F300.0 Z-3.1
G1 F1500.0 X195.5
G1 X196.25 Z-1.6
G1 X199.75
G1 X200.5 Z-3.1
G1 X215.6419
G3 X217.316 Y150.5099 I0.0 J1.75
G1 X179.408 Y274.9616
G3 X177.7339 Y276.2017 I-1.6741 J-0.5099
G1 X159.5
G1 X158.75 Z-1.6
G1 X155.25
G1 X154.5 Z-3.1
G1 X137.9079
G3 X136.2338 Y274.9616 I0.0 J-1.75
G1 X98.3259 Y150.5099
G3 X100.0 Y148.25 I1.6741 J-0.5099
G1 X111.5
G1 X112.25 Z-1.6
G1 X115.75
G1 X116.5 Z-3.1
G1 X133.6964
G3 X135.4012 Y149.6047 I0.0 J1.75
G1 X141.2144 Y174.677
G1 X173.2785
G1 X179.0916 Y149.6047
G3 X180.7964 Y148.25 I1.7048 J0.3953
G1 X183.7715
G0 Z3.0
G0 X221.7259 Y131.4384
G0 Z1.0
G1 F300.0 Z-1.6
G3 F1500.0 X221.5759 Y130.7297 I1.6001 J-0.7087
G1 Y103.1763
G3 X223.3259 Y101.4263 I1.75 J0.0
G1 X254.5124
G1 Y6.278
G3 X256.2624 Y4.528 I1.75 J0.0
G1 X289.1763
G3 X290.9263 Y6.278 I0.0 J1.75
G1 Y101.4263
G1 X322.1151
G3 X323.8651 Y103.1763 I0.0 J1.75
G1 Y130.7297
G3 X322.1151 Y132.4797 I-1.75 J0.0
G1 X223.3259
G3 X221.7259 Y131.4384 I0.0 J-1.75
G1 F300.0 Z-3.1
G3 F1500.0 X221.5759 Y130.7297 I1.6001 J-0.7087
G1 Y116.5
G1 Y115.75 Z-1.6
G1 Y112.25
G1 Y111.5 Z-3.1
G1 Y103.1763
G3 X223.3259 Y101.4263 I1.75 J0.0
G1 X254.5124
G1 Y6.278
G3 X256.2624 Y4.528 I1.75 J0.0
G1 X269.5
G1 X270.25 Z-1.6
G1 X273.75
G1 X274.5 Z-3.1
G1 X289.1763
G3 X290.9263 Y6.278 I0.0 J1.75
G1 Y101.4263
G1 X322.1151
G3 X323.8651 Y103.1763 I0.0 J1.75
G1 Y116.5
G1 Y117.25 Z-1.6
G1 Y120.75
G1 Y121.5 Z-3.1
G1 Y130.7297
G3 X322.1151 Y132.4797 I-1.75 J0.0
G1 X223.3259
G3 X221.7259 Y131.4384 I0.0 J-1.75
G0 Z3.0
G0 X237.2306 Y163.8104
G0 Z1.0
G1 F300.0 Z-1.6
G3 F1500.0 X239.7523 Y162.6817 I23.1206 J48.2729
G3 X239.7542 Y162.6809 I0.6735 J1.6152
G1 X239.9303 Y162.6077
G3 X239.9326 Y162.6068 I0.6716 J1.616
G3 X242.853 Y161.4941 I21.0343 J50.8171
G3 X242.8537 Y161.4938 I0.5764 J1.6524
G3 X248.0819 Y159.939 I19.4447 J55.8167
G3 X248.0838 Y159.9385 I0.4209 J1.6986
G3 X252.0771 Y159.0894 I15.1645 J61.5
G3 X252.0831 Y159.0883 I0.3086 J1.7226
G1 X252.4497 Y159.024
G3 X252.4559 Y159.0229 I0.3026 J1.7236
G3 X258.3327 Y158.281 I11.2443 J65.4222
G3 X258.3407 Y158.2803 I0.1415 J1.7443
G1 X259.0565 Y158.2256
G3 X259.3995 Y158.2019 I1.2362 J15.4195
G3 X264.2363 Y158.0434 I4.7712 J71.707
G3 X267.3773 Y158.1096 I0.1002 J69.7728
G3 X267.5239 Y158.1162 I-0.0662 J3.1348
G1 X268.2513 Y158.1522
G3 X268.2602 Y158.1527 I-0.0866 J1.7479
G3 X274.3188 Y158.7536 I-3.7505 J68.6501
G3 X274.3197 Y158.7538 I-0.2497 J1.7321
G3 X279.9411 Y159.8301 I-9.013 J62.2895
G3 X279.9469 Y159.8315 I-0.4069 J1.702
G1 X280.2638 Y159.9084
G3 X280.2732 Y159.9107 I-0.4127 J1.7006
G1 X280.5884 Y159.9891
G3 X280.5978 Y159.9914 I-0.4222 J1.6983
G1 X280.9113 Y160.0712
G3 X280.916 Y160.0724 I-0.4316 J1.6959
G3 X283.4725 Y160.792 I-14.7701 J57.3769
G3 X288.3234 Y162.5195 I-16.613 J54.3231
G3 X288.3238 Y162.5197 I-0.6612 J1.6203
G3 X292.7094 Y164.5433 I-20.4718 J50.1297
G3 X307.0594 Y175.4622 I-23.8596 J46.2465
G3 X311.3231 Y180.6926 I-39.5375 J36.5824
G3 X311.3234 Y180.6931 I-1.423 J1.0186
G3 X311.7462 Y181.2909 I-56.3513 J40.304
G3 X311.7475 Y181.2928 I-1.4341 J1.003
G3 X314.8169 Y186.2067 I-46.9535 J32.7443
G3 X317.0929 Y190.7178 I-54.6055 J30.3803
G3 X317.0937 Y190.7194 I-1.593 J0.7245
G3 X318.782 Y194.7945 I-60.8444 J27.5951
G3 X318.7843 Y194.8006 I-1.638 J0.6161
G1 X318.948 Y195.2409
G3 X318.9522 Y195.2524 I-1.6403 J0.6099
G1 X319.1103 Y195.6869
G3 X319.1112 Y195.6894 I-1.6445 J0.5984
G3 X319.4235 Y196.5755 I-50.8425 J18.4147
G3 X321.4342 Y203.5129 I-69.2497 J23.8312
G3 X322.0155 Y206.1501 I-81.9539 J19.4457
G3 X322.017 Y206.1577 I-1.7148 J0.3492
G1 X322.1296 Y206.7233
G3 X322.1851 Y207.0096 I-20.222 J4.0669
G3 X322.2378 Y207.2872 I-14.4531 J2.8912
G3 X322.2907 Y207.5711 I-11.9435 J2.3699
G3 X322.9717 Y211.8733 I-83.0943 J15.359
G3 X323.6027 Y218.3778 I-92.1524 J12.2217
G3 X323.8031 Y224.8951 I-104.9761 J6.4909
G3 X323.625 Y231.0102 I-103.5911 J0.0429
G3 X323.6167 Y231.1488 I-2.9878 J-0.109
G3 X323.0931 Y236.8846 I-91.8924 J-5.4966
G3 X323.0923 Y236.8914 I-1.7369 J-0.2135
G1 X323.0083 Y237.553
G3 X323.0077 Y237.5576 I-1.7361 J-0.2204
G3 X322.1361 Y242.8962 I-81.4214 J-10.5532
G3 X320.9901 Y247.8522 I-76.8885 J-15.1693
G3 X320.9899 Y247.8527 I-1.6913 J-0.4494
G3 X319.6015 Y252.4345 I-67.5585 J-17.9709
G3 X318.8388 Y254.5555 I-58.2572 J-19.7526
G3 X318.8371 Y254.5599 I-1.6356 J-0.6223
G1 X318.647 Y255.0556
G3 X318.6441 Y255.0629 I-1.6339 J-0.6267
G3 X318.2442 Y256.0678 I-62.7371 J-24.3856
G3 X318.244 Y256.0684 I-1.6207 J-0.6601
G3 X316.5004 Y259.9619 I-58.2601 J-23.7531
G3 X312.4863 Y266.9038 I-51.6309 J-25.2233
G3 X312.4814 Y266.911 I-1.4501 J-0.9796
G1 X312.2415 Y267.2624
G3 X312.2336 Y267.2739 I-1.4452 J-0.9868
G1 X311.9927 Y267.6207
G3 X311.9899 Y267.6247 I-1.4373 J-0.9983
G3 X307.6571 Y273.0299 I-43.1667 J-30.1637
G3 X298.4854 Y280.9324 I-37.8389 J-34.6423
G3 X294.6102 Y283.3027 I-28.6298 J-42.4547
G3 X294.6044 Y283.3059 I-0.846 J-1.5319
G1 X294.1835 Y283.5362
G3 X294.1762 Y283.5402 I-0.8402 J-1.5351
G3 X290.6757 Y285.2723 I-25.4448 J-47.0188
G3 X290.6752 Y285.2725 I-0.7183 J-1.5958
G3 X284.299 Y287.6878 I-23.1054 J-51.3719
G3 X284.2982 Y287.6881 I-0.5197 J-1.671
G1 X284.1502 Y287.734
G3 X284.1482 Y287.7347 I-0.5189 J-1.6713
G3 X279.2513 Y289.0242 I-17.6709 J-57.1636
G3 X271.7746 Y290.2148 I-14.0952 J-64.4418
G3 X268.0088 Y290.4989 I-7.3793 J-72.7066
G3 X268.0059 Y290.499 I-0.0865 J-1.7479
G1 X267.7757 Y290.5101
G3 X267.7677 Y290.5104 I-0.0836 J-1.748
G1 X267.3361 Y290.5291
G3 X267.3264 Y290.5295 I-0.0756 J-1.7484
G1 X266.9486 Y290.5437
G3 X266.9363 Y290.5441 I-0.066 J-1.7488
G1 X266.275 Y290.5644
G3 X266.2614 Y290.5648 I-0.0536 J-1.7492
G1 X265.7654 Y290.5761
G3 X265.762 Y290.5762 I-0.04 J-1.7495
G3 X264.2341 Y290.5911 I-1.4264 J-67.961
G3 X264.2281 I0.0026 J-1.75
G1 X263.4632 Y290.5873
G3 X263.4458 Y290.5871 I0.0087 J-1.75
G1 X262.6867 Y290.5758
G3 X262.6777 Y290.5757 I0.026 J-1.7498
G3 X259.5969 Y290.452 I1.5416 J-76.8491
G3 X253.6395 Y289.8388 I4.2063 J-70.1059
G3 X248.1067 Y288.7813 I9.1633 J-62.9433
G3 X243.033 Y287.3405 I13.6892 J-57.8613
G3 X242.9257 Y287.3047 I0.9659 J-3.0724
G3 X238.31 Y285.5315 I17.8986 J-53.4864
G3 X238.3087 Y285.531 I0.6986 J-1.6045
G3 X234.1266 Y283.489 I21.7479 J-49.8461
G3 X234.1262 Y283.4888 I0.8344 J-1.5383
G3 X226.8372 Y278.6925 I24.5857 J-45.2993
G3 X226.8359 Y278.6914 I1.0823 J-1.3752
G3 X221.2193 Y273.5418 I31.7596 J-40.2767
G3 X221.2143 Y273.5364 I1.2752 J-1.1985
G1 X220.9402 Y273.2423
G3 X220.933 Y273.2345 I1.2802 J-1.1931
G1 X220.7979 Y273.0878
G3 X220.7951 Y273.0847 I1.2874 J-1.1854
G3 X218.651 Y270.593 I38.8164 J-35.5702
G3 X218.65 Y270.5917 I1.3615 J-1.0995
G3 X215.0674 Y265.5926 I42.3213 J-34.1126
G3 X215.062 Y265.5842 I1.4778 J-0.9373
G1 X214.7167 Y265.0328
G3 X214.7112 Y265.024 I1.4831 J-0.9289
G3 X212.1443 Y260.4075 I48.7067 J-30.1044
G3 X211.1554 Y258.3253 I54.4203 J-27.1205
G1 Y258.3252
G1 X211.1555 Y258.3253
G1 X211.1554
G3 X210.3001 Y256.3426 I57.2821 J-25.8888
G3 X210.2994 Y256.3408 I1.6185 J-0.6655
G3 X207.6862 Y248.7006 I62.8181 J-25.7522
G3 X207.6845 Y248.6943 I1.6866 J-0.4669
G1 X207.4904 Y247.9827
G3 X207.4876 Y247.9725 I1.6883 J-0.4606
G3 X206.7882 Y245.1342 I75.4863 J-20.1062
G3 X206.7877 Y245.1321 I1.7067 J-0.3868
G3 X205.8213 Y240.1142 I79.387 J-17.8913
G3 X205.8211 Y240.1128 I1.728 J-0.2768
G3 X204.9382 Y232.5174 I89.1542 J-14.2127
G1 X204.9296 Y232.4007
G3 X204.9295 Y232.3996 I1.7453 J-0.1287
G3 X204.7268 Y228.6473 I98.7061 J-7.2137
G1 Y228.6472
G1 Y228.6473
G3 X204.6612 Y224.8951 I106.9873 J-3.7464
G3 Y224.894 I1.75 J0.0001
G3 X204.7048 Y221.8277 I113.3484 J0.0784
G3 X204.7078 Y221.7085 I3.0554 J0.0174
G3 X204.7107 Y221.6148 I3.0543 J0.0454
G3 X204.7148 Y221.4971 I3.0534 J0.0482
G3 X205.081 Y215.54 I100.0149 J3.159
G3 X205.0818 Y215.5323 I1.7427 J0.1594
G1 X205.1479 Y214.8433
G3 X205.1485 Y214.8375 I1.742 J0.1672
G3 X205.8728 Y209.3024 I89.2546 J8.8654
G3 X205.8895 Y209.1981 I2.9301 J0.4152
G3 X205.9068 Y209.0957 I2.9258 J0.4409
G3 X206.9271 Y203.951 I79.579 J13.1093
G3 X208.2037 Y199.1644 I74.2245 J17.2318
G3 X209.6998 Y194.7488 I66.0487 J19.9175
G3 X209.7021 Y194.7425 I1.6375 J0.6173
G1 X209.8921 Y194.2445
G3 X209.8945 Y194.2381 I1.6351 J0.6236
G3 X211.5929 Y190.2366 I61.0957 J23.5703
G3 X211.5933 Y190.2358 I1.5873 J0.7368
G3 X213.4349 Y186.5919 I56.2836 J26.1583
G3 X214.3847 Y184.9234 I47.7626 J26.0847
G3 X218.5762 Y178.7816 I48.5819 J28.6537
G3 X218.577 Y178.7807 I1.3773 J1.0796
G3 X222.9057 Y173.9071 I42.2072 J33.1294
G3 X222.9061 Y173.9067 I1.2354 J1.2395
G3 X231.8184 Y166.7991 I36.5738 J36.7187
G3 X231.8256 Y166.7945 I0.934 J1.4799
G1 X232.2639 Y166.5209
G3 X232.2727 Y166.5155 I0.9268 J1.4844
G3 X237.2306 Y163.8104 I28.0786 J45.5679
G1 F300.0 Z-3.1
G3 F1500.0 X239.7523 Y162.6817 I23.1206 J48.2729
G3 X239.7542 Y162.6809 I0.6735 J1.6152
G1 X239.9303 Y162.6077
G3 X239.9326 Y162.6068 I0.6716 J1.616
G3 X242.853 Y161.4941 I21.0343 J50.8171
G3 X242.8537 Y161.4938 I0.5764 J1.6524
G3 X248.0819 Y159.939 I19.4447 J55.8167
G3 X248.0838 Y159.9385 I0.4209 J1.6986
G3 X252.0771 Y159.0894 I15.1645 J61.5
G3 X252.0831 Y159.0883 I0.3086 J1.7226
G1 X252.4497 Y159.024
G3 X252.4559 Y159.0229 I0.3026 J1.7236
G3 X258.3327 Y158.281 I11.2443 J65.4222
G3 X258.3407 Y158.2803 I0.1415 J1.7443
G1 X259.0565 Y158.2256
G3 X259.3995 Y158.2019 I1.2362 J15.4195
G3 X262.472 Y158.0635 I4.7712 J71.707
G3 X263.2221 Y158.0496 Z-1.6 I1.6988 J71.8455
G3 X264.2363 Y158.0434 I0.9486 J71.8593
G3 X266.722 Y158.0841 I0.1002 J69.7728
G3 X267.3773 Y158.1096 Z-2.9116 I-2.3855 J69.7321
G3 X267.4717 Y158.1131 Z-3.1 I-0.0662 J3.1348
G3 X267.5239 Y158.1162 I-0.1607 J3.1314
G1 X268.2513 Y158.1522
G3 X268.2602 Y158.1527 I-0.0866 J1.7479
G3 X274.3188 Y158.7536 I-3.7505 J68.6501
G3 X274.3197 Y158.7538 I-0.2497 J1.7321
G3 X279.9411 Y159.8301 I-9.013 J62.2895
G3 X279.9469 Y159.8315 I-0.4069 J1.702
G1 X280.2638 Y159.9084
G3 X280.2732 Y159.9107 I-0.4127 J1.7006
G1 X280.5884 Y159.9891
G3 X280.5978 Y159.9914 I-0.4222 J1.6983
G1 X280.9113 Y160.0712
G3 X280.916 Y160.0724 I-0.4316 J1.6959
G3 X283.4725 Y160.792 I-14.7701 J57.3769
G3 X288.3234 Y162.5195 I-16.613 J54.3231
G3 X288.3238 Y162.5197 I-0.6612 J1.6203
G3 X292.7094 Y164.5433 I-20.4718 J50.1297
G3 X307.0594 Y175.4622 I-23.8596 J46.2465
G3 X311.3231 Y180.6926 I-39.5375 J36.5824
G3 X311.3234 Y180.6931 I-1.423 J1.0186
G3 X311.7462 Y181.2909 I-56.3513 J40.304
G3 X311.7475 Y181.2928 I-1.4341 J1.003
G3 X314.8169 Y186.2067 I-46.9535 J32.7443
G3 X317.0929 Y190.7178 I-54.6055 J30.3803
G3 X317.0937 Y190.7194 I-1.593 J0.7245
G3 X318.782 Y194.7945 I-60.8444 J27.5951
G3 X318.7843 Y194.8006 I-1.638 J0.6161
G1 X318.948 Y195.2409
G3 X318.9522 Y195.2524 I-1.6403 J0.6099
G1 X319.1103 Y195.6869
G3 X319.1112 Y195.6894 I-1.6445 J0.5984
G3 X319.4235 Y196.5755 I-50.8425 J18.4147
G3 X321.4342 Y203.5129 I-69.2497 J23.8312
G3 X322.0155 Y206.1501 I-81.9539 J19.4457
G3 X322.017 Y206.1577 I-1.7148 J0.3492
G1 X322.1296 Y206.7233
G3 X322.1851 Y207.0096 I-20.222 J4.0669
G3 X322.2378 Y207.2872 I-14.4531 J2.8912
G3 X322.2907 Y207.5711 I-11.9435 J2.3699
G3 X322.9717 Y211.8733 I-83.0943 J15.359
G3 X323.6027 Y218.3778 I-92.1524 J12.2217
G3 X323.8031 Y224.8951 I-104.9761 J6.4909
G3 X323.625 Y231.0102 I-103.5911 J0.0429
G3 X323.6167 Y231.1488 I-2.9878 J-0.109
G3 X323.0931 Y236.8846 I-91.8924 J-5.4966
G3 X323.0923 Y236.8914 I-1.7369 J-0.2135
G1 X323.0083 Y237.553
G3 X323.0077 Y237.5576 I-1.7361 J-0.2204
G3 X322.1361 Y242.8962 I-81.4214 J-10.5532
G3 X320.9901 Y247.8522 I-76.8885 J-15.1693
G3 X320.9899 Y247.8527 I-1.6913 J-0.4494
G3 X319.6015 Y252.4345 I-67.5585 J-17.9709
G3 X318.8388 Y254.5555 I-58.2572 J-19.7526
G3 X318.8371 Y254.5599 I-1.6356 J-0.6223
G1 X318.647 Y255.0556
G3 X318.6441 Y255.0629 I-1.6339 J-0.6267
G3 X318.2442 Y256.0678 I-62.7371 J-24.3856
G3 X318.244 Y256.0684 I-1.6207 J-0.6601
G3 X316.5004 Y259.9619 I-58.2601 J-23.7531
G3 X312.4863 Y266.9038 I-51.6309 J-25.2233
G3 X312.4814 Y266.911 I-1.4501 J-0.9796
G1 X312.2415 Y267.2624
G3 X312.2336 Y267.2739 I-1.4452 J-0.9868
G1 X311.9927 Y267.6207
G3 X311.9899 Y267.6247 I-1.4373 J-0.9983
G3 X307.6571 Y273.0299 I-43.1667 J-30.1637
G3 X305.2299 Y275.5074 I-37.8389 J-34.6423
G3 X304.683 Y276.0215 Z-1.6 I-35.4118 J-37.1198
G3 X302.0358 Y278.3112 I-34.8649 J-37.6339
G3 X301.4482 Y278.7783 Z-3.1 I-32.2177 J-39.9236
G3 X298.4854 Y280.9324 I-31.6301 J-40.3907
G3 X294.6102 Y283.3027 I-28.6298 J-42.4547
G3 X294.6044 Y283.3059 I-0.846 J-1.5319
G1 X294.1835 Y283.5362
G3 X294.1762 Y283.5402 I-0.8402 J-1.5351
G3 X290.6757 Y285.2723 I-25.4448 J-47.0188
G3 X290.6752 Y285.2725 I-0.7183 J-1.5958
G3 X284.299 Y287.6878 I-23.1054 J-51.3719
G3 X284.2982 Y287.6881 I-0.5197 J-1.671
G1 X284.1502 Y287.734
G3 X284.1482 Y287.7347 I-0.5189 J-1.6713
G3 X279.2513 Y289.0242 I-17.6709 J-57.1636
G3 X271.7746 Y290.2148 I-14.0952 J-64.4418
G3 X268.0088 Y290.4989 I-7.3793 J-72.7066
G3 X268.0059 Y290.499 I-0.0865 J-1.7479
G1 X267.7757 Y290.5101
G3 X267.7677 Y290.5104 I-0.0836 J-1.748
G1 X267.3361 Y290.5291
G3 X267.3264 Y290.5295 I-0.0756 J-1.7484
G1 X266.9486 Y290.5437
G3 X266.9363 Y290.5441 I-0.066 J-1.7488
G1 X266.275 Y290.5644
G3 X266.2614 Y290.5648 I-0.0536 J-1.7492
G1 X265.7654 Y290.5761
G3 X265.762 Y290.5762 I-0.04 J-1.7495
G3 X264.2341 Y290.5911 I-1.4264 J-67.961
G3 X264.2281 I0.0026 J-1.75
G1 X263.4632 Y290.5873
G3 X263.4458 Y290.5871 I0.0087 J-1.75
G1 X262.6867 Y290.5758
G3 X262.6777 Y290.5757 I0.026 J-1.7498
G3 X259.5969 Y290.452 I1.5416 J-76.8491
G3 X253.6395 Y289.8388 I4.2063 J-70.1059
G3 X248.1067 Y288.7813 I9.1633 J-62.9433
G3 X243.033 Y287.3405 I13.6892 J-57.8613
G3 X242.9257 Y287.3047 I0.9659 J-3.0724
G3 X238.31 Y285.5315 I17.8986 J-53.4864
G3 X238.3087 Y285.531 I0.6986 J-1.6045
G3 X234.1266 Y283.489 I21.7479 J-49.8461
G3 X234.1262 Y283.4888 I0.8344 J-1.5383
G3 X226.8372 Y278.6925 I24.5857 J-45.2993
G3 X226.8359 Y278.6914 I1.0823 J-1.3752
G3 X221.2193 Y273.5418 I31.7596 J-40.2767
G3 X221.2143 Y273.5364 I1.2752 J-1.1985
G1 X220.9402 Y273.2423
G3 X220.933 Y273.2345 I1.2802 J-1.1931
G1 X220.7979 Y273.0878
G3 X220.7951 Y273.0847 I1.2874 J-1.1854
G3 X218.651 Y270.593 I38.8164 J-35.5702
G3 X218.65 Y270.5917 I1.3615 J-1.0995
G3 X215.0674 Y265.5926 I42.3213 J-34.1126
G3 X215.062 Y265.5842 I1.4778 J-0.9373
G1 X214.7167 Y265.0328
G3 X214.7112 Y265.024 I1.4831 J-0.9289
G3 X212.1443 Y260.4075 I48.7067 J-30.1044
G3 X211.1554 Y258.3253 I54.4203 J-27.1205
G1 Y258.3252
G1 X211.1555 Y258.3253
G1 X211.1554
G3 X210.3001 Y256.3426 I57.2821 J-25.8888
G3 X210.2994 Y256.3408 I1.6185 J-0.6655
G3 X207.6862 Y248.7006 I62.8181 J-25.7522
G3 X207.6845 Y248.6943 I1.6866 J-0.4669
G1 X207.5884 Y248.342
G1 X207.4904 Y247.9827 Z-2.3552
G3 X207.4876 Y247.9725 Z-2.3342 I1.6883 J-0.4606
G3 X207.3939 Y247.6173 Z-1.6 I75.4863 J-20.1062
G3 X206.7882 Y245.1342 I75.58 J-19.751
G3 X206.7877 Y245.1321 I1.7067 J-0.3868
G3 X206.5859 Y244.2118 I79.387 J-17.8913
G3 X206.4329 Y243.4773 Z-3.1 I79.5888 J-16.9711
G3 X205.8213 Y240.1142 I79.7419 J-16.2365
G3 X205.8211 Y240.1128 I1.728 J-0.2768
G3 X204.9382 Y232.5174 I89.1542 J-14.2127
G1 X204.9296 Y232.4007
G3 X204.9295 Y232.3996 I1.7453 J-0.1287
G3 X204.7268 Y228.6473 I98.7061 J-7.2137
G1 Y228.6472
G1 Y228.6473
G3 X204.6612 Y224.8951 I106.9873 J-3.7464
G3 Y224.894 I1.75 J0.0001
G3 X204.7048 Y221.8277 I113.3484 J0.0784
G3 X204.7078 Y221.7085 I3.0554 J0.0174
G3 X204.7107 Y221.6148 I3.0543 J0.0454
G3 X204.7148 Y221.4971 I3.0534 J0.0482
G3 X205.081 Y215.54 I100.0149 J3.159
G3 X205.0818 Y215.5323 I1.7427 J0.1594
G1 X205.1479 Y214.8433
G3 X205.1485 Y214.8375 I1.742 J0.1672
G3 X205.8728 Y209.3024 I89.2546 J8.8654
G3 X205.8895 Y209.1981 I2.9301 J0.4152
G3 X205.9068 Y209.0957 I2.9258 J0.4409
G3 X206.9271 Y203.951 I79.579 J13.1093
G3 X208.2037 Y199.1644 I74.2245 J17.2318
G3 X209.6998 Y194.7488 I66.0487 J19.9175
G3 X209.7021 Y194.7425 I1.6375 J0.6173
G1 X209.8921 Y194.2445
G3 X209.8945 Y194.2381 I1.6351 J0.6236
G3 X211.5929 Y190.2366 I61.0957 J23.5703
G3 X211.5933 Y190.2358 I1.5873 J0.7368
G3 X213.4349 Y186.5919 I56.2836 J26.1583
G3 X214.3847 Y184.9234 I47.7626 J26.0847
G3 X218.5762 Y178.7816 I48.5819 J28.6537
G3 X218.577 Y178.7807 I1.3773 J1.0796
G3 X222.9057 Y173.9071 I42.2072 J33.1294
G3 X222.9061 Y173.9067 I1.2354 J1.2395
G3 X231.8184 Y166.7991 I36.5738 J36.7187
G3 X231.8256 Y166.7945 I0.934 J1.4799
G1 X232.2639 Y166.5209
G3 X232.2727 Y166.5155 I0.9268 J1.4844
G3 X237.2306 Y163.8104 I28.0786 J45.5679
G0 Z3.0
G0 X114.706 Y134.8542
G0 Z1.0
G1 F300.0 Z-1.6
G3 F1500.0 X113.0029 Y136.2017 I-1.7031 J-0.4025
G1 X80.089
G3 X78.339 Y134.4517 I0.0 J-1.75
G1 Y89.8572
G1 X44.6639
G1 Y134.4517
G3 X42.9139 Y136.2017 I-1.75 J0.0
G1 X10.0
G3 X8.25 Y134.4517 I0.0 J-1.75
G1 Y10.0
G3 X10.0 Y8.25 I1.75 J0.0
G1 X42.9139
G3 X44.6639 Y10.0 I0.0 J1.75
G1 Y57.6571
G1 X78.339
G1 Y10.0
G3 X80.089 Y8.25 I1.75 J0.0
G1 X113.0029
G3 X114.7529 Y10.0 I0.0 J1.75
G1 Y134.4517
G3 X114.706 Y134.8542 I-1.75 J0.0
G1 F300.0 Z-3.1
G3 F1500.0 X113.0029 Y136.2017 I-1.7031 J-0.4025
G1 X80.089
G3 X78.339 Y134.4517 I0.0 J-1.75
G1 Y89.8572
G1 X44.6639
G1 Y134.4517
G3 X42.9139 Y136.2017 I-1.75 J0.0
G1 X27.5
G1 X26.75 Z-1.6
G1 X23.25
G1 X22.5 Z-3.1
G1 X10.0
G3 X8.25 Y134.4517 I0.0 J-1.75
G1 Y10.0
G3 X10.0 Y8.25 I1.75 J0.0
G1 X22.5
G1 X23.25 Z-1.6
G1 X26.75
G1 X27.5 Z-3.1
G1 X42.9139
G3 X44.6639 Y10.0 I0.0 J1.75
G1 Y57.6571
G1 X78.339
G1 Y10.0
G3 X80.089 Y8.25 I1.75 J0.0
G1 X113.0029
G3 X114.7529 Y10.0 I0.0 J1.75
G1 Y76.5
G1 Y77.25 Z-1.6
G1 Y80.75
G1 Y81.5 Z-3.1
G1 Y134.4517
G3 X114.706 Y134.8542 I-1.75 J0.0
G0 Z3.0
G0 X88.0595 Y149.2108
G0 Z1.0
G1 F300.0 Z-1.6
G3 F1500.0 X88.1972 Y149.5451 I-1.5406 J0.8301
G1 X124.9562 Y273.9968
G3 X123.2778 Y276.2425 I-1.6783 J0.4957
G1 X89.5836
G3 X87.879 Y274.8885 I0.0 J-1.75
G1 X75.2536 Y220.539
G3 X75.2099 Y220.3605 I4.7164 J-1.2489
G3 X74.9177 Y219.1644 I202.3346 J-50.0538
G3 X74.8773 Y218.9989 I4.7952 J-1.2596
G3 X74.8413 Y218.8505 I4.809 J-1.2434
G3 X74.8056 Y218.7027 I4.8186 J-1.2438
G3 X74.77 Y218.5554 I4.8284 J-1.2442
G3 X74.7346 Y218.4087 I4.8383 J-1.2446
G3 X74.6994 Y218.2625 I4.8483 J-1.2452
G3 X74.6644 Y218.1169 I4.8584 J-1.2457
G3 X74.6261 Y217.9564 I4.8687 J-1.2463
G3 X74.3533 Y216.814 I201.3485 J-48.6873
G1 X74.0894 Y215.6984
G3 X74.0883 Y215.6935 I1.703 J-0.4028
G1 X73.5829 Y213.5293
G3 X73.5817 Y213.5239 I1.7042 J-0.3979
G1 X73.1143 Y211.4935
G3 X73.1136 Y211.4903 I1.7054 J-0.3925
G1 X72.8963 Y210.5381
G3 X72.8957 Y210.5356 I1.7062 J-0.3893
G1 X72.4775 Y208.6901
G3 X72.4769 Y208.6875 I1.7067 J-0.3868
G1 X72.0874 Y206.9568
G3 X72.0871 Y206.955 I1.7073 J-0.3842
G1 X71.7235 Y205.3321
G3 X71.7233 Y205.3309 I1.7077 J-0.3825
G1 X71.0438 Y202.2876
G1 X70.4489 Y199.6253
G1 X70.3186 Y199.0436
G1 X70.1921 Y198.4799
G1 X70.0696 Y197.9345
G1 X69.592 Y195.8193
G1 X69.382 Y194.8953
G1 X69.1842 Y194.029
G1 X68.9979 Y193.2172
G1 X68.8224 Y192.4557
G2 X67.4778 Y186.7628 I-547.4246 J126.2876
G1 X67.3919 Y186.4085
G1 X67.3815 Y186.366
G2 X66.4 Y190.5508 I404.4202 J97.0598
G1 X66.1863 Y191.4848
G1 X65.7758 Y193.2974
G3 X65.7695 Y193.3242 I-1.7068 J-0.3865
G2 X65.7588 Y193.3719 I1.3821 J0.336
G3 X65.7457 Y193.4302 I-1.7137 J-0.3547
G2 X65.735 Y193.4779 I1.3922 J0.338
G3 X65.722 Y193.5357 I-1.7137 J-0.3546
G2 X65.7113 Y193.5834 I1.4025 J0.3401
G3 X65.6984 Y193.6408 I-1.7137 J-0.3546
G2 X65.6877 Y193.6885 I1.413 J0.3423
G3 X65.6749 Y193.7455 I-1.7137 J-0.3546
G2 X65.6642 Y193.7932 I1.4236 J0.3444
G3 X65.6515 Y193.8498 I-1.7137 J-0.3545
G2 X65.6408 Y193.8976 I1.4343 J0.3467
G3 X65.6349 Y193.9247 I-1.7137 J-0.3545
G2 X64.1647 Y200.5715 I1527.447 J341.359
G3 X64.1643 Y200.573 I-1.7095 J-0.3742
G1 X63.8919 Y201.8122
G3 X63.8254 Y202.1149 I-15.2816 J-3.1994
G3 X63.7602 Y202.4105 I-16.7856 J-3.5449
G1 X63.2613 Y204.67
G3 X63.2606 Y204.673 I-1.7088 J-0.3773
G1 X62.8191 Y206.6559
G3 X62.8189 Y206.6568 I-1.7082 J-0.3803
G3 X62.0313 Y210.1347 I-554.1812 J-123.6678
G1 Y210.1349
G1 X61.9566 Y210.4597
G3 X61.9564 Y210.4608 I-1.7055 J-0.392
G1 X61.8839 Y210.7754
G3 X61.8836 Y210.7765 I-1.7053 J-0.3931
G1 X61.8132 Y211.0813
G3 X61.8129 Y211.0823 I-1.705 J-0.3942
G3 X60.6887 Y215.8174 I-444.3733 J-103.0047
G3 X60.6876 Y215.822 I-1.7005 J-0.4133
G1 X60.3981 Y216.9989
G3 X60.397 Y217.0032 I-1.6994 J-0.418
G1 X60.2873 Y217.4443
G3 X60.2868 Y217.4466 I-1.6983 J-0.4223
G1 X60.1903 Y217.8325
G3 X60.1898 Y217.8345 I-1.6977 J-0.4245
G1 X60.105 Y218.1718
G3 X59.5006 Y220.5303 I-239.0601 J-60.0084
G1 X46.4813 Y274.9
G3 X44.7794 Y276.2425 I-1.7019 J-0.4075
G1 X9.9339
G3 X8.2556 Y273.9968 I0.0 J-1.75
G1 X45.0168 Y149.5451
G3 X46.6951 Y148.2908 I1.6783 J0.4957
G1 X86.5188
G3 X88.0595 Y149.2108 I0.0 J1.75
G1 F300.0 Z-3.1
G3 F1500.0 X88.1972 Y149.5451 I-1.5406 J0.8301
G1 X124.9562 Y273.9968
G3 X123.2778 Y276.2425 I-1.6783 J0.4957
G1 X109.5
G1 X108.75 Z-1.6
G1 X105.25
G1 X104.5 Z-3.1
G1 X89.5836
G3 X87.879 Y274.8885 I0.0 J-1.75
G1 X75.2536 Y220.539
G3 X75.2099 Y220.3605 I4.7164 J-1.2489
G3 X74.9177 Y219.1644 I202.3346 J-50.0538
G3 X74.8773 Y218.9989 I4.7952 J-1.2596
G3 X74.8413 Y218.8505 I4.809 J-1.2434
G3 X74.8056 Y218.7027 I4.8186 J-1.2438
G3 X74.77 Y218.5554 I4.8284 J-1.2442
G3 X74.7346 Y218.4087 I4.8383 J-1.2446
G3 X74.6994 Y218.2625 I4.8483 J-1.2452
G3 X74.6644 Y218.1169 I4.8584 J-1.2457
G3 X74.6261 Y217.9564 I4.8687 J-1.2463
G3 X74.3533 Y216.814 I201.3485 J-48.6873
G1 X74.0894 Y215.6984
G3 X74.0883 Y215.6935 I1.703 J-0.4028
G1 X73.5829 Y213.5293
G3 X73.5817 Y213.5239 I1.7042 J-0.3979
G1 X73.1143 Y211.4935
G3 X73.1136 Y211.4903 I1.7054 J-0.3925
G1 X72.8963 Y210.5381
G3 X72.8957 Y210.5356 I1.7062 J-0.3893
G1 X72.4775 Y208.6901
G3 X72.4769 Y208.6875 I1.7067 J-0.3868
G1 X72.0874 Y206.9568
G3 X72.0871 Y206.955 I1.7073 J-0.3842
G1 X71.7235 Y205.3321
G3 X71.7233 Y205.3309 I1.7077 J-0.3825
G1 X71.0438 Y202.2876
G1 X70.4489 Y199.6253
G1 X70.3186 Y199.0436
G1 X70.1921 Y198.4799
G1 X70.0696 Y197.9345
G1 X69.592 Y195.8193
G1 X69.382 Y194.8953
G1 X69.1842 Y194.029
G1 X68.9979 Y193.2172
G1 X68.8224 Y192.4557
G2 X67.4778 Y186.7628 I-547.4246 J126.2876
G1 X67.3919 Y186.4085
G1 X67.3815 Y186.366
G2 X66.4 Y190.5508 I404.4202 J97.0598
G1 X66.1863 Y191.4848
G1 X65.7758 Y193.2974
G3 X65.7695 Y193.3242 I-1.7068 J-0.3865
G2 X65.7588 Y193.3719 I1.3821 J0.336
G3 X65.7457 Y193.4302 I-1.7137 J-0.3547
G2 X65.735 Y193.4779 I1.3922 J0.338
G3 X65.722 Y193.5357 I-1.7137 J-0.3546
G2 X65.7113 Y193.5834 I1.4025 J0.3401
G3 X65.6984 Y193.6408 I-1.7137 J-0.3546
G2 X65.6877 Y193.6885 I1.413 J0.3423
G3 X65.6749 Y193.7455 I-1.7137 J-0.3546
G2 X65.6642 Y193.7932 I1.4236 J0.3444
G3 X65.6515 Y193.8498 I-1.7137 J-0.3545
G2 X65.6408 Y193.8976 I1.4343 J0.3467
G3 X65.6349 Y193.9247 I-1.7137 J-0.3545
G2 X64.1647 Y200.5715 I1527.447 J341.359
G3 X64.1643 Y200.573 I-1.7095 J-0.3742
G1 X63.8919 Y201.8122
G3 X63.8254 Y202.1149 I-15.2816 J-3.1994
G3 X63.7602 Y202.4105 I-16.7856 J-3.5449
G1 X63.2613 Y204.67
G3 X63.2606 Y204.673 I-1.7088 J-0.3773
G1 X62.8191 Y206.6559
G3 X62.8189 Y206.6568 I-1.7082 J-0.3803
G3 X62.0313 Y210.1347 I-554.1812 J-123.6678
G1 Y210.1349
G1 X61.9566 Y210.4597
G3 X61.9564 Y210.4608 I-1.7055 J-0.392
G1 X61.8839 Y210.7754
G3 X61.8836 Y210.7765 I-1.7053 J-0.3931
G1 X61.8132 Y211.0813
G3 X61.8129 Y211.0823 I-1.705 J-0.3942
G3 X60.6887 Y215.8174 I-444.3733 J-103.0047
G3 X60.6876 Y215.822 I-1.7005 J-0.4133
G1 X60.3981 Y216.9989
G3 X60.397 Y217.0032 I-1.6994 J-0.418
G1 X60.2873 Y217.4443
G3 X60.2868 Y217.4466 I-1.6983 J-0.4223
G1 X60.1903 Y217.8325
G3 X60.1898 Y217.8345 I-1.6977 J-0.4245
G1 X60.105 Y218.1718
G3 X59.5006 Y220.5303 I-239.0601 J-60.0084
G1 X46.4813 Y274.9
G3 X44.7794 Y276.2425 I-1.7019 J-0.4075
G1 X33.5
G1 X32.75 Z-1.6
G1 X29.25
G1 X28.5 Z-3.1
G1 X9.9339
G3 X8.2556 Y273.9968 I0.0 J-1.75
G1 X45.0168 Y149.5451
G3 X46.6951 Y148.2908 I1.6783 J0.4957
G1 X62.5
G1 X63.25 Z-1.6
G1 X66.75
G1 X67.5 Z-3.1
G1 X86.5188
G3 X88.0595 Y149.2108 I0.0 J1.75
G0 Z3.0
M5
M30
