( Made using CamBam - http://www.cambam.co.uk )
( tabla_elektronika_edit_onika 10/21/2014 1:53:34 PM )
( T0 : 3.5 )
G21 G90 G64 G40
G0 Z3.0
( T0 : 3.5 )
T0 M6
( onika )
G17
M3 S1000
G0 X67.7388 Y40.1135
G0 Z1.0
G1 F300.0 Z-1.6
G2 F1500.0 X64.8552 Y40.3164 I0.0014 J20.618
G2 X62.2314 Y40.8875 I2.5631 J18.0869
G3 X62.2311 Y40.8876 I-0.4969 J-1.678
G2 X57.709 Y42.9608 I4.9833 J16.8387
G3 X57.7075 Y42.9617 I-0.9473 J-1.4715
G2 X56.8157 Y43.5735 I9.6737 J15.059
G3 X56.8106 Y43.5771 I-1.033 J-1.4126
G2 X56.6082 Y43.7272 I7.3777 J10.164
G3 X56.6038 Y43.7305 I-1.0562 J-1.3953
G2 X55.0093 Y45.0727 I11.4025 J15.164
G3 X55.0063 Y45.0756 I-1.1988 J-1.2749
G2 X53.6427 Y46.4815 I13.8268 J14.7745
G2 X51.4147 Y49.4465 I18.0359 J15.8722
G3 X51.4098 Y49.4542 I-1.476 J-0.9402
G2 X50.9855 Y50.1394 I18.8902 J12.1704
G3 X50.9839 Y50.1421 I-1.5042 J-0.8944
G2 X50.2067 Y51.5261 I25.7304 J15.3608
G2 X49.5438 Y52.8619 I30.3416 J15.888
G1 X49.3931 Y53.1891
G2 X48.8506 Y54.4505 I28.1045 J12.8326
G3 X48.8498 Y54.4526 I-1.6226 J-0.6554
G1 X48.8181 Y54.5308
G2 X47.9308 Y56.9658 I34.5452 J13.9667
G3 X47.9301 Y56.9681 I-1.6641 J-0.5416
G2 X47.2796 Y59.1537 I40.4776 J13.2359
G3 X47.2773 Y59.1624 I-1.6901 J-0.4541
G2 X47.1537 Y59.6311 I23.6883 J6.4949
G3 X47.1525 Y59.636 I-1.6965 J-0.4293
G2 X46.3312 Y63.4381 I49.5336 J12.6886
G1 X46.3152 Y63.5293
G1 X46.2996 Y63.6187
G1 X46.2843 Y63.7074
G1 X46.2693 Y63.7949
G2 X45.5839 Y69.4329 I60.6079 J10.2285
G1 X45.5325 Y70.153
G2 X45.3717 Y75.1472 I77.1959 J4.9853
G3 Y75.1495 I-1.75 J0.0002
G2 X45.4242 Y78.0253 I74.1485 J0.0862
G3 X45.4243 Y78.0305 I-1.7488 J0.0658
G2 X45.4866 Y79.3728 I57.4466 J-1.993
G1 X45.5271 Y80.0394
G2 X46.071 Y85.1682 I62.1407 J-3.9967
G2 X46.936 Y89.6095 I49.9443 J-7.4226
G2 X48.0514 Y93.4061 I40.1448 J-9.7323
G2 X48.3439 Y94.2138 I29.3699 J-10.1811
G3 X48.3458 Y94.2187 I-1.637 J0.6186
G2 X49.6737 Y97.2766 I30.4106 J-11.3884
G1 X49.7579 Y97.444
G2 X51.1893 Y99.9376 I23.9799 J-12.1079
G2 X51.8973 Y100.9695 I20.044 J-12.9933
G1 X51.8974 Y100.9696
G2 X53.3666 Y102.7888 I18.253 J-13.2385
G3 X53.3668 Y102.7891 I-1.3026 J1.1686
G2 X56.3627 Y105.5008 I14.472 J-12.9778
G2 X61.7381 Y108.1707 I10.5461 J-14.4866
G2 X64.703 Y108.817 I5.6752 J-18.9106
G3 X64.7039 Y108.8171 I-0.2402 J1.7334
G2 X65.0797 Y108.8659 I2.8264 J-20.3159
G2 X67.7596 Y109.0232 I2.6783 J-22.7134
G3 X67.7614 I0.0001 J1.75
G2 X70.6262 Y108.8425 I0.021 J-22.4651
G1 X70.6265
G2 X73.2267 Y108.3292 I-2.4604 J-19.305
G3 X73.2292 Y108.3285 I0.4551 J1.6898
G2 X77.7456 Y106.4302 I-4.6615 J-17.4125
G2 X81.1285 Y103.8484 I-9.461 J-15.9038
G1 X81.2158 Y103.764
G2 X83.6481 Y100.9371 I-15.0238 J-15.386
G3 X83.6505 Y100.9337 I1.4205 J1.022
G2 X84.5665 Y99.571 I-19.4838 J-14.087
G2 X86.0568 Y96.8529 I-23.6239 J-14.7199
G1 X86.2052 Y96.539
G1 X86.3455 Y96.2336
G1 X86.4818 Y95.9283
G2 X87.4397 Y93.5002 I-31.6723 J-13.8987
G2 X88.7172 Y89.0694 I-39.1124 J-13.6765
G3 X88.7176 Y89.068 I1.7059 J0.3905
G1 X88.7422 Y88.9608
G2 X89.3936 Y85.5656 I-50.7152 J-11.4907
G2 X89.7395 Y82.9866 I-57.407 J-9.0111
G2 X90.0553 Y79.0798 I-67.7077 J-7.4404
G2 X90.1546 Y75.1469 I-78.8659 J-3.9585
G3 X90.1548 Y75.1245 I1.75 J0.0006
G3 X90.1547 Y75.0787 I1.7498 J-0.0239
G3 Y75.0329 I1.7498 J-0.0249
G3 X90.1546 Y74.9871 I1.7498 J-0.0258
G3 X90.1545 Y74.9414 I1.7498 J-0.0268
G3 X90.1544 Y74.8957 I1.7498 J-0.0278
G3 X90.1542 Y74.8501 I1.7498 J-0.0287
G3 X90.154 Y74.8045 I1.7497 J-0.0297
G3 X90.1538 Y74.759 I1.7497 J-0.0307
G3 X90.1536 Y74.7135 I1.7497 J-0.0316
G3 X90.1534 Y74.668 I1.7497 J-0.0326
G3 X90.1531 Y74.6226 I1.7497 J-0.0336
G3 X90.1528 Y74.5773 I1.7497 J-0.0345
G3 X90.1524 Y74.5319 I1.7496 J-0.0355
G3 X90.1521 Y74.4866 I1.7496 J-0.0365
G3 X90.1517 Y74.4414 I1.7496 J-0.0374
G3 X90.1513 Y74.3962 I1.7496 J-0.0384
G3 X90.1508 Y74.351 I1.7496 J-0.0394
G3 X90.1504 Y74.3257 I1.7495 J-0.0403
G2 X89.8714 Y68.5804 I-72.0372 J0.6195
G3 X89.8713 Y68.5792 I1.7432 J-0.1546
G2 X89.2167 Y63.5656 I-59.9256 J5.2747
G2 X88.7891 Y61.3869 I-51.3823 J8.9529
G3 X88.7886 Y61.3848 I1.7097 J-0.3735
G2 X87.7231 Y57.3689 I-44.6233 J9.6899
G2 X87.1346 Y55.6436 I-40.7137 J12.9263
G3 X87.1344 Y55.6431 I1.6438 J-0.6002
G2 X86.834 Y54.8529 I-29.5024 J10.7625
G2 X86.194 Y53.3304 I-36.1353 J14.2941
G1 X86.1143 Y53.1542
G1 X86.0333 Y52.9777
G2 X84.6303 Y50.2965 I-28.104 J12.9983
G2 X83.184 Y48.1013 I-22.3147 J13.1277
G2 X81.7402 Y46.3267 I-18.6941 J13.7354
G3 X81.7388 Y46.3252 I1.3013 J-1.17
G2 X78.8186 Y43.6576 I-14.8366 J13.3091
G2 X76.3197 Y42.1014 I-10.7823 J14.5293
G2 X72.1833 Y40.5981 I-8.0333 J15.662
G3 X72.1821 Y40.5978 I0.3874 J-1.7066
G2 X69.9929 Y40.232 I-4.2224 J18.5352
G1 X69.993
G1 X69.9929
G2 X67.7615 Y40.1135 I-2.2101 J20.5519
G3 X67.7582 I-0.0018 J-1.75
G2 X67.7388 I-0.0179 J20.6179
G1 F300.0 Z-3.1
G2 F1500.0 X64.8552 Y40.3164 I0.0014 J20.618
G2 X62.2314 Y40.8875 I2.5631 J18.0869
G3 X62.2311 Y40.8876 I-0.4969 J-1.678
G2 X57.709 Y42.9608 I4.9833 J16.8387
G3 X57.7075 Y42.9617 I-0.9473 J-1.4715
G2 X56.8157 Y43.5735 I9.6737 J15.059
G3 X56.8106 Y43.5771 I-1.033 J-1.4126
G2 X56.6082 Y43.7272 I7.3777 J10.164
G3 X56.6038 Y43.7305 I-1.0562 J-1.3953
G2 X55.0093 Y45.0727 I11.4025 J15.164
G3 X55.0063 Y45.0756 I-1.1988 J-1.2749
G2 X53.6427 Y46.4815 I13.8268 J14.7745
G2 X51.4147 Y49.4465 I18.0359 J15.8722
G3 X51.4098 Y49.4542 I-1.476 J-0.9402
G2 X50.9855 Y50.1394 I18.8902 J12.1704
G3 X50.9839 Y50.1421 I-1.5042 J-0.8944
G2 X50.2067 Y51.5261 I25.7304 J15.3608
G2 X49.5438 Y52.8619 I30.3416 J15.888
G1 X49.3931 Y53.1891
G2 X48.8506 Y54.4505 I28.1045 J12.8326
G3 X48.8498 Y54.4526 I-1.6226 J-0.6554
G1 X48.8181 Y54.5308
G2 X48.0219 Y56.6895 I34.5452 J13.9667
G2 X47.9308 Y56.9658 Z-2.5182 I35.3413 J11.808
G3 X47.9301 Y56.9681 Z-2.5133 I-1.6641 J-0.5416
G2 X47.7902 Y57.4038 Z-1.6 I40.4776 J13.2359
G2 X47.2796 Y59.1537 I40.6175 J12.8003
G3 X47.2773 Y59.1624 I-1.6901 J-0.4541
G2 X47.1537 Y59.6311 I23.6883 J6.4949
G3 X47.1525 Y59.636 I-1.6965 J-0.4293
G2 X46.8731 Y60.7815 I49.5336 J12.6886
G2 X46.709 Y61.514 Z-3.1 I49.813 J11.5431
G2 X46.3312 Y63.4381 I49.9771 J10.8105
G1 X46.3152 Y63.5293
G1 X46.2996 Y63.6187
G1 X46.2843 Y63.7074
G1 X46.2693 Y63.7949
G2 X45.5839 Y69.4329 I60.6079 J10.2285
G1 X45.5325 Y70.153
G2 X45.3717 Y75.1472 I77.1959 J4.9853
G3 Y75.1495 I-1.75 J0.0002
G2 X45.4242 Y78.0253 I74.1485 J0.0862
G3 X45.4243 Y78.0305 I-1.7488 J0.0658
G2 X45.4866 Y79.3728 I57.4466 J-1.993
G1 X45.5271 Y80.0394
G2 X46.071 Y85.1682 I62.1407 J-3.9967
G2 X46.936 Y89.6095 I49.9443 J-7.4226
G2 X48.0514 Y93.4061 I40.1448 J-9.7323
G2 X48.3439 Y94.2138 I29.3699 J-10.1811
G3 X48.3458 Y94.2187 I-1.637 J0.6186
G2 X49.6737 Y97.2766 I30.4106 J-11.3884
G1 X49.7579 Y97.444
G2 X51.1893 Y99.9376 I23.9799 J-12.1079
G2 X51.8973 Y100.9695 I20.044 J-12.9933
G1 X51.8974 Y100.9696
G2 X53.3666 Y102.7888 I18.253 J-13.2385
G3 X53.3668 Y102.7891 I-1.3026 J1.1686
G2 X56.3627 Y105.5008 I14.472 J-12.9778
G2 X61.7381 Y108.1707 I10.5461 J-14.4866
G2 X64.703 Y108.817 I5.6752 J-18.9106
G3 X64.7039 Y108.8171 I-0.2402 J1.7334
G2 X65.0797 Y108.8659 I2.8264 J-20.3159
G2 X65.2646 Y108.8869 I2.6783 J-22.7134
G2 X66.0145 Y108.9567 Z-1.6 I2.4934 J-22.7344
G2 X67.7596 Y109.0232 I1.7435 J-22.8042
G3 X67.7614 I0.0001 J1.75
G2 X69.5145 Y108.9564 I0.021 J-22.4651
G2 X70.2646 Y108.8857 Z-3.1 I-1.7321 J-22.3982
G2 X70.6262 Y108.8425 I-2.4822 J-22.3276
G1 X70.6265
G2 X73.2267 Y108.3292 I-2.4604 J-19.305
G3 X73.2292 Y108.3285 I0.4551 J1.6898
G2 X77.7456 Y106.4302 I-4.6615 J-17.4125
G2 X81.1285 Y103.8484 I-9.461 J-15.9038
G1 X81.2158 Y103.764
G2 X83.6481 Y100.9371 I-15.0238 J-15.386
G3 X83.6505 Y100.9337 I1.4205 J1.022
G2 X84.5665 Y99.571 I-19.4838 J-14.087
G2 X86.0568 Y96.8529 I-23.6239 J-14.7199
G1 X86.2052 Y96.539
G1 X86.3455 Y96.2336
G1 X86.4818 Y95.9283
G2 X87.4397 Y93.5002 I-31.6723 J-13.8987
G2 X88.7172 Y89.0694 I-39.1124 J-13.6765
G3 X88.7176 Y89.068 I1.7059 J0.3905
G1 X88.7422 Y88.9608
G2 X89.3936 Y85.5656 I-50.7152 J-11.4907
G2 X89.7395 Y82.9866 I-57.407 J-9.0111
G2 X90.0553 Y79.0798 I-67.7077 J-7.4404
G2 X90.1546 Y75.1469 I-78.8659 J-3.9585
G3 X90.1548 Y75.1245 I1.75 J0.0006
G3 X90.1547 Y75.0787 I1.7498 J-0.0239
G3 Y75.0329 I1.7498 J-0.0249
G3 X90.1546 Y74.9871 I1.7498 J-0.0258
G3 X90.1545 Y74.9414 I1.7498 J-0.0268
G3 X90.1544 Y74.8957 I1.7498 J-0.0278
G3 X90.1542 Y74.8501 I1.7498 J-0.0287
G3 X90.154 Y74.8045 I1.7497 J-0.0297
G3 X90.1538 Y74.759 I1.7497 J-0.0307
G3 X90.1536 Y74.7135 I1.7497 J-0.0316
G3 X90.1534 Y74.668 I1.7497 J-0.0326
G3 X90.1531 Y74.6226 I1.7497 J-0.0336
G3 X90.1528 Y74.5773 I1.7497 J-0.0345
G3 X90.1524 Y74.5319 I1.7496 J-0.0355
G3 X90.1521 Y74.4866 I1.7496 J-0.0365
G3 X90.1517 Y74.4414 I1.7496 J-0.0374
G3 X90.1513 Y74.3962 I1.7496 J-0.0384
G3 X90.1508 Y74.351 I1.7496 J-0.0394
G3 X90.1504 Y74.3257 I1.7495 J-0.0403
G2 X89.8714 Y68.5804 I-72.0372 J0.6195
G3 X89.8713 Y68.5792 I1.7432 J-0.1546
G2 X89.2167 Y63.5656 I-59.9256 J5.2747
G2 X88.8167 Y61.5139 I-51.3823 J8.9529
G2 X88.7891 Y61.3869 Z-2.8402 I-50.9823 J11.0046
G3 X88.7886 Y61.3848 Z-2.8358 I1.7097 J-0.3735
G2 X88.6532 Y60.7811 Z-1.6 I-44.6233 J9.6899
G2 X87.7342 Y57.4039 I-44.4879 J10.2936
G2 X87.7231 Y57.3689 Z-1.6735 I-43.5688 J13.6707
G2 X87.5014 Y56.69 Z-3.1 I-40.7137 J12.9263
G2 X87.1346 Y55.6436 I-40.4919 J13.6051
G3 X87.1344 Y55.6431 I1.6438 J-0.6002
G2 X86.834 Y54.8529 I-29.5024 J10.7625
G2 X86.194 Y53.3304 I-36.1353 J14.2941
G1 X86.1143 Y53.1542
G1 X86.0333 Y52.9777
G2 X84.6303 Y50.2965 I-28.104 J12.9983
G2 X83.184 Y48.1013 I-22.3147 J13.1277
G2 X81.7402 Y46.3267 I-18.6941 J13.7354
G3 X81.7388 Y46.3252 I1.3013 J-1.17
G2 X78.8186 Y43.6576 I-14.8366 J13.3091
G2 X76.3197 Y42.1014 I-10.7823 J14.5293
G2 X72.1833 Y40.5981 I-8.0333 J15.662
G3 X72.1821 Y40.5978 I0.3874 J-1.7066
G2 X69.9929 Y40.232 I-4.2224 J18.5352
G1 X69.993
G1 X69.9929
G2 X67.7615 Y40.1135 I-2.2101 J20.5519
G3 X67.7582 I-0.0018 J-1.75
G2 X67.7388 I-0.0179 J20.6179
G0 Z3.0
G0 X241.1518 Y203.6224
G0 Z1.0
G1 F300.0 Z-1.6
G1 F1500.0 X242.728 Y210.0711
G3 X243.9563 Y214.9887 I-361.5796 J92.9268
G3 X243.9566 Y214.9898 I-1.7007 J0.4125
G1 X244.0866 Y215.5272
G3 X244.0873 Y215.5304 I-1.7009 J0.4115
G1 X244.3413 Y216.5889
G3 X244.3422 Y216.5928 I-1.7017 J0.4083
G1 X244.5859 Y217.6188
G3 X244.5867 Y217.6223 I-1.7026 J0.4043
G1 X244.8207 Y218.6168
G3 X244.8211 Y218.6186 I-1.7035 J0.4008
G1 X244.8493 Y218.7391
G3 X244.8501 Y218.7423 I-1.7039 J0.3989
G1 X245.2958 Y220.6628
G3 X245.2968 Y220.667 I-1.7047 J0.3957
G3 X246.9213 Y227.8957 I-796.8149 J182.8671
G3 X246.9216 Y227.8969 I-1.7091 J0.376
G1 X247.2184 Y229.251
G3 X247.2188 Y229.2524 I-1.7094 J0.3747
G1 X247.2881 Y229.5699
G3 X247.2885 Y229.572 I-1.7097 J0.3733
G1 X247.8308 Y232.0704
G3 X247.8898 Y232.3437 I-40.6649 J8.9239
G3 X247.9505 Y232.6254 I-16.8467 J3.7781
G1 X248.1771 Y233.6788
G3 X248.1774 Y233.6805 I-1.7109 J0.368
G1 X248.6031 Y235.6692
G3 X248.6037 Y235.6716 I-1.7112 J0.3663
G1 X249.3436 Y239.1528
G3 X249.3441 Y239.1551 I-1.7118 J0.3638
G1 X250.3034 Y243.6974
G2 X250.3348 Y243.5626 I-524.595 J-122.2284
G1 X250.5773 Y242.5182
G1 X250.6357 Y242.266
G1 X250.6935 Y242.0156
G1 X250.9226 Y241.02
G1 X251.3637 Y239.0893
G1 X251.7742 Y237.2787
G1 X252.5393 Y233.8794
G1 X253.8742 Y227.9269
G3 X253.8745 Y227.9256 I1.7076 J0.3829
G1 X254.1256 Y226.8095
G3 X254.126 Y226.808 I1.7073 J0.3842
G1 X254.5989 Y224.7158
G3 X254.5992 Y224.7142 I1.7069 J0.3858
G1 X254.7031 Y224.2567
G3 X254.7033 Y224.2557 I1.7066 J0.3873
G1 X254.905 Y223.3692
G3 X254.9053 Y223.3678 I1.7064 J0.3883
G1 X255.0951 Y222.537
G3 X255.0955 Y222.5355 I1.7061 J0.3897
G1 X255.2741 Y221.7567
G3 X255.2746 Y221.7544 I1.7057 J0.3912
G1 X255.6114 Y220.2946
G3 X255.6121 Y220.2914 I1.7052 J0.3934
G1 X255.9083 Y219.0187
G3 X256.042 Y218.4479 I47.4662 J10.815
G1 X256.164 Y217.9289
G3 X256.1646 Y217.9266 I1.7035 J0.4006
G1 X256.3966 Y216.9456
G3 X256.3969 Y216.9445 I1.703 J0.4029
G3 X257.2284 Y213.5011 I430.8998 J102.2272
G3 X257.2289 Y213.4988 I1.6995 J0.4176
G1 X257.4405 Y212.6425
G3 X257.4419 Y212.6371 I1.6989 J0.4198
G1 X257.7633 Y211.3537
G3 X257.7646 Y211.3485 I1.6976 J0.4251
G1 X257.9201 Y210.7357
G3 X257.9544 Y210.6006 I2.5657 J0.5791
G3 X258.0147 Y210.3646 I25.6071 J6.4234
G3 X258.0457 Y210.2445 I2.4955 J0.5787
G1 X258.0902 Y210.0712
G1 X259.6664 Y203.6224
G1 X241.1518
G1 F300.0 Z-3.1
G1 F1500.0 X242.728 Y210.0711
G3 X243.9563 Y214.9887 I-361.5796 J92.9268
G3 X243.9566 Y214.9898 I-1.7007 J0.4125
G1 X244.0866 Y215.5272
G3 X244.0873 Y215.5304 I-1.7009 J0.4115
G1 X244.3413 Y216.5889
G3 X244.3422 Y216.5928 I-1.7017 J0.4083
G1 X244.5859 Y217.6188
G3 X244.5867 Y217.6223 I-1.7026 J0.4043
G1 X244.8207 Y218.6168
G3 X244.8211 Y218.6186 I-1.7035 J0.4008
G1 X244.8493 Y218.7391
G3 X244.8501 Y218.7423 I-1.7039 J0.3989
G1 X244.8819 Y218.8795
G1 X245.0515 Y219.6101 Z-1.6
G1 X245.2958 Y220.6628
G3 X245.2968 Y220.667 I-1.7047 J0.3957
G3 X245.8335 Y223.0216 I-796.8149 J182.8671
G3 X245.9988 Y223.7532 Z-3.1 I-797.3516 J180.5125
G3 X246.9213 Y227.8957 I-797.5168 J179.7809
G3 X246.9216 Y227.8969 I-1.7091 J0.376
G1 X247.2184 Y229.251
G3 X247.2188 Y229.2524 I-1.7094 J0.3747
G1 X247.2881 Y229.5699
G3 X247.2885 Y229.572 I-1.7097 J0.3733
G1 X247.8308 Y232.0704
G3 X247.8898 Y232.3437 I-40.6649 J8.9239
G3 X247.9505 Y232.6254 I-16.8467 J3.7781
G1 X248.1771 Y233.6788
G3 X248.1774 Y233.6805 I-1.7109 J0.368
G1 X248.6031 Y235.6692
G3 X248.6037 Y235.6716 I-1.7112 J0.3663
G1 X249.3436 Y239.1528
G3 X249.3441 Y239.1551 I-1.7118 J0.3638
G1 X250.3034 Y243.6974
G2 X250.3348 Y243.5626 I-524.595 J-122.2284
G1 X250.5773 Y242.5182
G1 X250.6357 Y242.266
G1 X250.6935 Y242.0156
G1 X250.9226 Y241.02
G1 X251.3637 Y239.0893
G1 X251.7742 Y237.2787
G1 X252.5393 Y233.8794
G1 X253.8742 Y227.9269
G3 X253.8745 Y227.9256 I1.7076 J0.3829
G1 X254.1256 Y226.8095
G3 X254.126 Y226.808 I1.7073 J0.3842
G1 X254.5989 Y224.7158
G3 X254.5992 Y224.7142 I1.7069 J0.3858
G1 X254.7031 Y224.2567
G3 X254.7033 Y224.2557 I1.7066 J0.3873
G1 X254.905 Y223.3692
G3 X254.9053 Y223.3678 I1.7064 J0.3883
G1 X255.0173 Y222.8775
G1 X255.0951 Y222.537 Z-2.4014
G3 X255.0955 Y222.5355 Z-2.3984 I1.7061 J0.3897
G1 X255.1847 Y222.1464 Z-1.6
G1 X255.2741 Y221.7567
G3 X255.2746 Y221.7544 I1.7057 J0.3912
G1 X255.6114 Y220.2946
G3 X255.6121 Y220.2914 I1.7052 J0.3934
G1 X255.9083 Y219.0187
G3 X255.9735 Y218.7364 I47.4662 J10.815
G3 X256.042 Y218.4479 Z-2.1931 I47.401 J11.0972
G1 X256.1458 Y218.0065 Z-3.1
G1 X256.164 Y217.9289
G3 X256.1646 Y217.9266 I1.7035 J0.4006
G1 X256.3966 Y216.9456
G3 X256.3969 Y216.9445 I1.703 J0.4029
G3 X257.2284 Y213.5011 I430.8998 J102.2272
G3 X257.2289 Y213.4988 I1.6995 J0.4176
G1 X257.4405 Y212.6425
G3 X257.4419 Y212.6371 I1.6989 J0.4198
G1 X257.7633 Y211.3537
G3 X257.7646 Y211.3485 I1.6976 J0.4251
G1 X257.9201 Y210.7357
G3 X257.9544 Y210.6006 I2.5657 J0.5791
G3 X258.0147 Y210.3646 I25.6071 J6.4234
G3 X258.0457 Y210.2445 I2.4955 J0.5787
G1 X258.0902 Y210.0712
G1 X259.6664 Y203.6224
G1 X252.5
G1 X251.75 Z-1.6
G1 X248.25
G1 X247.5 Z-3.1
G1 X241.1518
G0 Z3.0
G0 Y174.677
G0 Z1.0
G1 F300.0 Z-1.6
G1 F1500.0 X266.4401
G1 X272.2555 Y149.6046
G3 X273.9602 Y148.25 I1.7047 J0.3954
G1 X308.8057
G3 X310.4798 Y150.51 I0.0 J1.75
G1 X272.5696 Y274.9594
G3 X270.8955 Y276.1994 I-1.6741 J-0.51
G1 X231.0718
G3 X229.3977 Y274.9594 I0.0 J-1.75
G1 X191.4874 Y150.51
G3 X193.1615 Y148.25 I1.6741 J-0.51
G1 X226.858
G3 X228.5627 Y149.6046 I0.0 J1.75
G1 X234.3781 Y174.677
G1 X241.1518
G1 F300.0 Z-3.1
G1 F1500.0 X266.4401
G1 X272.2555 Y149.6046
G3 X273.9602 Y148.25 I1.7047 J0.3954
G1 X295.5
G1 X296.25 Z-1.6
G1 X299.75
G1 X300.5 Z-3.1
G1 X308.8057
G3 X310.4798 Y150.51 I0.0 J1.75
G1 X272.5696 Y274.9594
G3 X270.8955 Y276.1994 I-1.6741 J-0.51
G1 X250.5
G1 X249.75 Z-1.6
G1 X246.25
G1 X245.5 Z-3.1
G1 X231.0718
G3 X229.3977 Y274.9594 I0.0 J-1.75
G1 X191.4874 Y150.51
G3 X193.1615 Y148.25 I1.6741 J-0.51
G1 X207.5
G1 X208.25 Z-1.6
G1 X211.75
G1 X212.5 Z-3.1
G1 X226.858
G3 X228.5627 Y149.6046 I0.0 J1.75
G1 X234.3781 Y174.677
G1 X241.1518
G0 Z3.0
G0 Y138.543
G0 Z1.0
G1 F300.0 Z-1.6
G1 F1500.0 X221.3503
G3 X219.6003 Y136.793 I0.0 J-1.75
G1 Y100.8008
G3 Y100.7959 I1.75 J0.0
G1 X219.6024 Y100.0505
G3 Y100.0445 I1.75 J0.0049
G1 X219.6036 Y99.861
G3 Y99.8581 I1.75 J0.0109
G3 X219.6213 Y98.382 I178.349 J1.4013
G3 X219.6955 Y95.516 I144.0425 J2.2927
G3 Y95.5154 I1.7489 J0.0627
G1 X219.7195 Y94.8521
G3 X219.7197 Y94.8458 I1.7489 J0.0633
G1 X219.7457 Y94.1929
G3 X219.7459 Y94.1885 I1.7486 J0.0696
G3 X220.0255 Y89.0099 I222.3034 J9.409
G3 X220.0256 Y89.0094 I1.7462 J0.1147
G1 X220.0441 Y88.7286
G3 X220.0443 Y88.7258 I1.7462 J0.1153
G3 X220.7802 Y79.7723 I309.3663 J20.9183
G1 Y79.7722
G1 X220.7801 Y79.7723
G1 X220.7802
G1 X220.8608 Y78.9388
G3 X220.8611 Y78.9353 I1.7419 J0.1684
G1 X220.9397 Y78.1392
G3 X220.9506 Y78.0282 I4.8535 J0.4217
G3 X220.9604 Y77.9304 I4.7953 J0.4302
G3 X220.9702 Y77.833 I4.7409 J0.426
G3 X220.9815 Y77.7216 I4.6892 J0.4221
G1 X221.1379 Y76.1934
G3 X221.1383 Y76.1892 I1.7409 J0.1781
G1 X221.2139 Y75.4678
G3 X221.2143 Y75.4642 I1.7405 J0.1823
G1 X221.362 Y74.0821
G3 X221.3725 Y73.9824 I3.5657 J0.3267
G3 X221.3814 Y73.9005 I3.5492 J0.3433
G3 X221.3902 Y73.819 I3.5348 J0.3425
G3 X221.3991 Y73.7378 I3.5205 J0.3416
G3 X221.41 Y73.6393 I3.5065 J0.3407
G1 X221.5478 Y72.3871
G3 X221.558 Y72.2934 I3.2984 J0.3101
G3 X221.5664 Y72.2182 I3.2863 J0.3277
G3 X221.5747 Y72.1433 I3.2761 J0.3271
G3 X221.583 Y72.0687 I3.266 J0.3265
G3 X221.5913 Y71.9944 I3.2561 J0.326
G3 X221.5996 Y71.9204 I3.2463 J0.3254
G3 X221.6103 Y71.8276 I3.2367 J0.3248
G1 X221.8747 Y69.5018
G3 X221.8752 Y69.497 I1.7388 J0.1977
G1 X222.1139 Y67.4485
G3 X222.1143 Y67.4452 I1.7382 J0.2025
G1 X222.3265 Y65.6531
G3 X222.3269 Y65.6502 I1.7379 J0.2058
G1 X222.6689 Y62.8039
G1 X214.5358 Y81.952
G3 X214.4923 Y82.0466 I-1.6107 J-0.6841
G1 X186.9004 Y137.5718
G3 X185.3332 Y138.543 I-1.5672 J-0.7788
G1 X151.6435
G3 X149.8935 Y136.793 I0.0 J-1.75
G1 Y12.3436
G3 X151.6435 Y10.5936 I1.75 J0.0
G1 X183.0262
G3 X184.7762 Y12.3436 I0.0 J1.75
G1 Y48.3358
G3 Y48.3383 I-1.75 J0.0
G1 X184.7757 Y48.7111
G3 Y48.7146 I-1.75 J-0.0025
G3 X184.6398 Y54.6974 I-155.2149 J-0.5319
G3 Y54.6982 I-1.7485 J-0.0735
G1 X184.6124 Y55.3441
G3 X184.5826 Y55.9921 I-81.5096 J-3.4138
G1 X184.5752 Y56.1471
G3 X184.5751 Y56.1485 I-1.748 J-0.0838
G1 X184.5675 Y56.3044
G3 X184.5672 Y56.3105 I-1.7479 J-0.0852
G1 X184.5024 Y57.553
G3 X184.5018 Y57.5632 I-1.7476 J-0.0913
G1 X184.4319 Y58.7665
G3 X184.4315 Y58.7735 I-1.7471 J-0.1014
G1 X184.3953 Y59.3562
G3 X184.3952 Y59.3576 I-1.7466 J-0.1085
G3 X184.0594 Y63.9768 I-237.47 J-14.9421
G3 X183.3082 Y72.0245 I-373.5287 J-30.807
G3 X183.308 Y72.0262 I-1.7406 J-0.1814
G1 X183.1514 Y73.5151
G3 X183.1407 Y73.6171 I-4.4323 J-0.4147
G3 X183.1313 Y73.7049 I-4.3992 J-0.426
G3 X183.1219 Y73.7924 I-4.3683 J-0.4236
G3 X183.1111 Y73.8922 I-4.3383 J-0.4213
G3 X182.4921 Y79.427 I-616.9025 J-66.183
G3 X182.4316 Y79.9494 I-134.7547 J-15.3362
G1 X182.1968 Y81.958
G3 X182.1965 Y81.961 I-1.7382 J-0.2032
G1 X181.653 Y86.5423
G1 X189.8515 Y67.373
G3 X189.8923 Y67.2845 I1.609 J0.6882
G1 X217.4841 Y11.567
G3 X219.0523 Y10.5936 I1.5682 J0.7766
G1 X252.733
G3 X254.483 Y12.3436 I0.0 J1.75
G1 Y136.793
G3 X252.733 Y138.543 I-1.75 J0.0
G1 X241.1518
G1 X239.25
G1 X238.5 Z-3.1
G1 X221.3503
G3 X219.6003 Y136.793 I0.0 J-1.75
G1 Y100.8008
G3 Y100.7959 I1.75 J0.0
G1 X219.6024 Y100.0505
G3 Y100.0445 I1.75 J0.0049
G1 X219.6036 Y99.861
G3 Y99.8581 I1.75 J0.0109
G3 X219.6213 Y98.382 I178.349 J1.4013
G3 X219.6955 Y95.516 I144.0425 J2.2927
G3 Y95.5154 I1.7489 J0.0627
G1 X219.7195 Y94.8521
G3 X219.7197 Y94.8458 I1.7489 J0.0633
G1 X219.7457 Y94.1929
G3 X219.7459 Y94.1885 I1.7486 J0.0696
G3 X220.0255 Y89.0099 I222.3034 J9.409
G3 X220.0256 Y89.0094 I1.7462 J0.1147
G1 X220.0441 Y88.7286
G3 X220.0443 Y88.7258 I1.7462 J0.1153
G3 X220.7802 Y79.7723 I309.3663 J20.9183
G1 Y79.7722
G1 X220.7801 Y79.7723
G1 X220.7802
G1 X220.8608 Y78.9388
G3 X220.8611 Y78.9353 I1.7419 J0.1684
G1 X220.9397 Y78.1392
G3 X220.9506 Y78.0282 I4.8535 J0.4217
G3 X220.9604 Y77.9304 I4.7953 J0.4302
G3 X220.9702 Y77.833 I4.7409 J0.426
G3 X220.9815 Y77.7216 I4.6892 J0.4221
G1 X221.1379 Y76.1934
G3 X221.1383 Y76.1892 I1.7409 J0.1781
G1 X221.2139 Y75.4678
G3 X221.2143 Y75.4642 I1.7405 J0.1823
G1 X221.362 Y74.0821
G3 X221.3725 Y73.9824 I3.5657 J0.3267
G3 X221.3814 Y73.9005 I3.5492 J0.3433
G3 X221.3902 Y73.819 I3.5348 J0.3425
G3 X221.3991 Y73.7378 I3.5205 J0.3416
G3 X221.41 Y73.6393 I3.5065 J0.3407
G1 X221.5478 Y72.3871
G3 X221.558 Y72.2934 I3.2984 J0.3101
G3 X221.5664 Y72.2182 I3.2863 J0.3277
G3 X221.5747 Y72.1433 I3.2761 J0.3271
G3 X221.583 Y72.0687 I3.266 J0.3265
G3 X221.5913 Y71.9944 I3.2561 J0.326
G3 X221.5996 Y71.9204 I3.2463 J0.3254
G3 X221.6103 Y71.8276 I3.2367 J0.3248
G1 X221.8747 Y69.5018
G3 X221.8752 Y69.497 I1.7388 J0.1977
G1 X222.1139 Y67.4485
G3 X222.1143 Y67.4452 I1.7382 J0.2025
G1 X222.3265 Y65.6531
G3 X222.3269 Y65.6502 I1.7379 J0.2058
G1 X222.6689 Y62.8039
G1 X214.5358 Y81.952
G3 X214.4923 Y82.0466 I-1.6107 J-0.6841
G1 X186.9004 Y137.5718
G3 X185.3332 Y138.543 I-1.5672 J-0.7788
G1 X151.6435
G3 X149.8935 Y136.793 I0.0 J-1.75
G1 Y126.5
G1 Y125.75 Z-1.6
G1 Y122.25
G1 Y121.5 Z-3.1
G1 Y12.3436
G3 X151.6435 Y10.5936 I1.75 J0.0
G1 X183.0262
G3 X184.7762 Y12.3436 I0.0 J1.75
G1 Y48.3358
G3 Y48.3383 I-1.75 J0.0
G1 X184.7757 Y48.7111
G3 Y48.7146 I-1.75 J-0.0025
G3 X184.6398 Y54.6974 I-155.2149 J-0.5319
G3 Y54.6982 I-1.7485 J-0.0735
G1 X184.6124 Y55.3441
G3 X184.5826 Y55.9921 I-81.5096 J-3.4138
G1 X184.5752 Y56.1471
G3 X184.5751 Y56.1485 I-1.748 J-0.0838
G1 X184.5675 Y56.3044
G3 X184.5672 Y56.3105 I-1.7479 J-0.0852
G1 X184.5024 Y57.553
G3 X184.5018 Y57.5632 I-1.7476 J-0.0913
G1 X184.4319 Y58.7665
G3 X184.4315 Y58.7735 I-1.7471 J-0.1014
G1 X184.3953 Y59.3562
G3 X184.3952 Y59.3576 I-1.7466 J-0.1085
G3 X184.0594 Y63.9768 I-237.47 J-14.9421
G3 X183.3082 Y72.0245 I-373.5287 J-30.807
G3 X183.308 Y72.0262 I-1.7406 J-0.1814
G1 X183.1514 Y73.5151
G3 X183.1407 Y73.6171 I-4.4323 J-0.4147
G3 X183.1313 Y73.7049 I-4.3992 J-0.426
G3 X183.1219 Y73.7924 I-4.3683 J-0.4236
G3 X183.1111 Y73.8922 I-4.3383 J-0.4213
G3 X182.4921 Y79.427 I-616.9025 J-66.183
G3 X182.4316 Y79.9494 I-134.7547 J-15.3362
G1 X182.1968 Y81.958
G3 X182.1965 Y81.961 I-1.7382 J-0.2032
G1 X181.653 Y86.5423
G1 X189.8515 Y67.373
G3 X189.8923 Y67.2845 I1.609 J0.6882
G1 X202.8171 Y41.1848
G1 X203.1499 Y40.5127 Z-1.6
G1 X204.7031 Y37.3762
G1 X205.036 Y36.7041 Z-3.1
G1 X217.4841 Y11.567
G3 X219.0523 Y10.5936 I1.5682 J0.7766
G1 X252.733
G3 X254.483 Y12.3436 I0.0 J1.75
G1 Y136.793
G3 X252.733 Y138.543 I-1.75 J0.0
G1 X243.5
G1 X242.75 Z-1.6
G1 X241.1518
G0 Z3.0
G0 X184.5558 Y149.6626
G0 Z1.0
G1 F300.0 Z-1.6
G3 F1500.0 X184.3384 Y150.9017 I-1.7172 J0.3374
G1 X140.5103 Y223.8053
G1 X176.9702 Y273.413
G3 X175.5601 Y276.1994 I-1.4101 J1.0364
G1 X139.5589
G3 X138.1103 Y275.4313 I0.0 J-1.75
G1 X109.1368 Y232.6858
G1 Y274.4494
G3 X107.3868 Y276.1994 I-1.75 J0.0
G1 X74.4729
G3 X72.7229 Y274.4494 I0.0 J-1.75
G1 Y150.0
G3 X74.4729 Y148.25 I1.75 J0.0
G1 X107.3868
G3 X109.1368 Y150.0 I0.0 J1.75
G1 Y180.4595
G1 X119.1111 Y194.618
G1 X145.3187 Y149.1264
G3 X146.8351 Y148.25 I1.5164 J0.8736
G1 X182.8386
G3 X184.5558 Y149.6626 I0.0 J1.75
G1 F300.0 Z-3.1
G3 F1500.0 X184.3384 Y150.9017 I-1.7172 J0.3374
G1 X140.5103 Y223.8053
G1 X176.9702 Y273.413
G3 X175.5601 Y276.1994 I-1.4101 J1.0364
G1 X162.5
G1 X161.75 Z-1.6
G1 X158.25
G1 X157.5 Z-3.1
G1 X139.5589
G3 X138.1103 Y275.4313 I0.0 J-1.75
G1 X109.1368 Y232.6858
G1 Y274.4494
G3 X107.3868 Y276.1994 I-1.75 J0.0
G1 X74.4729
G3 X72.7229 Y274.4494 I0.0 J-1.75
G1 Y209.5
G1 Y208.75 Z-1.6
G1 Y205.25
G1 Y204.5 Z-3.1
G1 Y150.0
G3 X74.4729 Y148.25 I1.75 J0.0
G1 X107.3868
G3 X109.1368 Y150.0 I0.0 J1.75
G1 Y180.4595
G1 X119.1111 Y194.618
G1 X145.3187 Y149.1264
G3 X146.8351 Y148.25 I1.5164 J0.8736
G1 X163.5
G1 X164.25 Z-1.6
G1 X167.75
G1 X168.5 Z-3.1
G1 X182.8386
G3 X184.5558 Y149.6626 I0.0 J1.75
G0 Z3.0
G0 X118.5944 Y112.9584
G0 Z1.0
G1 F300.0 Z-1.6
G3 F1500.0 X118.35 Y113.3933 I-52.0753 J-28.9773
G3 X114.1702 Y119.716 I-48.1341 J-27.2779
G3 X109.8067 Y124.7275 I-41.2697 J-31.5278
G3 X100.7574 Y132.0009 I-36.3955 J-36.016
G3 X100.7567 Y132.0014 I-0.9346 J-1.4795
G3 X93.0514 Y136.0243 I-28.413 J-45.0295
G3 X86.9273 Y138.2095 I-22.2176 J-52.5912
G3 X82.2063 Y139.3963 I-17.1029 J-58.053
G3 X82.2056 Y139.3964 I-0.358 J-1.713
G3 X75.0099 Y140.4935 I-13.6833 J-65.6004
G3 X75.0055 Y140.494 I-0.1694 J-1.7418
G1 X74.5642 Y140.5357
G3 X74.5576 Y140.5364 I-0.165 J-1.7422
G3 X67.7579 Y140.841 I-6.7209 J-73.9635
G3 X67.7511 I0.0019 J-1.75
G1 X66.9862 Y140.8372
G3 X66.9688 Y140.8371 I0.0087 J-1.75
G1 X66.2098 Y140.8258
G3 X66.2 Y140.8256 I0.0261 J-1.7498
G3 X63.1208 Y140.7019 I1.607 J-78.4235
G3 X63.1197 I0.1045 J-1.7469
G3 X57.1636 Y140.0885 I4.2833 J-70.8179
G3 X57.1631 Y140.0884 I0.2526 J-1.7317
G3 X51.6313 Y139.0307 I9.2979 J-63.6213
G3 X51.631 Y139.0306 I0.4036 J-1.7028
G3 X46.5586 Y137.5898 I13.8876 J-58.538
G3 X46.4503 Y137.5536 I0.9659 J-3.0731
G3 X41.8366 Y135.7807 I18.1567 J-54.1395
G1 X41.8363 Y135.7806
G3 X33.6618 Y131.3311 I21.082 J-48.4658
G3 X33.6612 Y131.3307 I0.9687 J-1.4574
G3 X27.2693 Y126.2942 I28.0999 J-42.2359
G3 X22.4053 Y121.1178 I34.8531 J-37.6236
G3 X18.7651 Y116.1033 I41.5413 J-33.9851
G3 X16.0637 Y111.422 I48.4362 J-31.0706
G3 X14.0641 Y107.1502 I54.2868 J-28.0151
G3 X13.2925 Y105.2384 I55.9805 J-23.7045
G3 X12.0106 Y101.5998 I62.223 J-23.9656
G3 X12.0093 Y101.5958 I1.6667 J-0.5335
G1 X11.885 Y101.2041
G3 X11.8819 Y101.1941 I1.668 J-0.5294
G1 X11.7618 Y100.8078
G3 X11.7596 Y100.8006 I1.6711 J-0.5194
G3 X10.1231 Y94.4891 I71.9264 J-22.0172
G1 Y94.4889
G3 X9.2474 Y89.6876 I79.9673 J-17.065
G1 Y89.6875
G3 X8.4455 Y82.4278 I89.2251 J-13.53
G3 X8.1933 Y75.146 I102.5128 J-7.1954
G3 X8.2369 Y72.0803 I114.5677 J0.0961
G3 X8.2399 Y71.9611 I3.0553 J0.0173
G3 X8.2439 Y71.8442 I3.0542 J0.0454
G3 X8.6051 Y65.8796 I97.5798 J2.9161
G3 X8.6057 Y65.8733 I1.7427 J0.1592
G1 X8.6712 Y65.1837
G3 X8.6725 Y65.1706 I1.7422 J0.1655
G1 X8.7427 Y64.4867
G3 X8.7433 Y64.4807 I1.7409 J0.1786
G3 X9.4995 Y58.9868 I88.6862 J9.408
G3 X9.5208 Y58.862 I2.9235 J0.4345
G3 X10.563 Y53.7619 I79.04 J13.4955
G3 X10.6394 Y53.4442 I12.4289 J2.8224
G3 X11.9494 Y48.7229 I71.3304 J17.2482
G3 X13.4745 Y44.3662 I65.779 J20.5814
G3 X15.1776 Y40.3754 I59.9139 J23.2098
G3 X19.1146 Y33.2356 I54.3715 J25.3262
G3 X19.1168 Y33.2323 I1.4715 J0.9472
G3 X19.6053 Y32.4881 I55.8332 J36.1224
G3 X23.8829 Y26.8879 I45.4019 J30.2456
G3 X33.0185 Y18.6117 I39.3374 J34.2422
G3 X33.0197 Y18.6109 I1.0134 J1.4267
G3 X40.9989 Y13.9489 I30.4004 J42.8724
G3 X47.4262 Y11.3922 I23.5859 J49.9342
G3 X52.4138 Y9.9976 I18.1674 J55.3568
G1 Y9.9975
G1 Y9.9976
G3 X60.0501 Y8.7051 I14.4756 J62.3235
G3 X60.0544 Y8.7047 I0.1871 J1.74
G1 X60.523 Y8.6555
G3 X60.535 Y8.6542 I0.1828 J1.7404
G1 X60.9744 Y8.6112
G3 X60.9815 Y8.6105 I0.1708 J1.7416
G3 X67.7366 Y8.2956 I6.7172 J71.4948
G3 X67.8823 Y8.2957 I0.0705 J3.1402
G3 X74.152 Y8.575 I-0.0988 J72.7506
G3 X74.29 Y8.5873 I-0.2112 J3.1293
G3 X80.1538 Y9.3841 I-5.9488 J65.7581
G1 X80.1539
G1 X80.1537
G1 X80.1538
G3 X85.595 Y10.6337 I-10.8627 J59.7673
G3 X85.5958 Y10.634 I-0.4697 J1.6858
G3 X90.5726 Y12.2678 I-15.654 J56.0793
G3 X90.5748 Y12.2686 I-0.6201 J1.6365
G3 X92.851 Y13.1921 I-19.9854 J52.5288
G3 X92.8523 Y13.1927 I-0.6932 J1.6069
G3 X95.0158 Y14.1838 I-21.937 J50.7429
G1 X95.0159
G1 X95.0158
G3 X102.9303 Y18.9154 I-22.9171 J47.3178
G3 X102.9325 Y18.917 I-1.0262 J1.4175
G3 X106.0986 Y21.4055 I-31.1722 J42.9192
G3 X106.1002 Y21.4068 I-1.1329 J1.3338
G3 X108.8831 Y23.9547 I-33.9691 J39.8972
G3 X108.8836 Y23.9551 I-1.2274 J1.2474
G3 X111.3166 Y26.5163 I-37.193 J37.7692
G3 X111.3174 Y26.5171 I-1.3082 J1.1624
G3 X115.3971 Y31.7161 I-40.9219 J36.3119
G3 X115.3978 Y31.7172 I-1.4395 J0.9952
G3 X118.4349 Y36.6154 I-48.2751 J33.3236
G3 X118.4354 Y36.6162 I-1.5308 J0.848
G3 X120.6898 Y41.1146 I-54.0546 J29.904
G3 X120.6922 Y41.1198 I-1.5952 J0.7197
G3 X121.1308 Y42.1135 I-102.2015 J45.7108
G3 X121.1339 Y42.1207 I-1.6044 J0.699
G3 X122.6913 Y46.0766 I-62.3627 J26.8352
G3 X123.2946 Y47.8369 I-62.0586 J22.2528
G3 X125.1466 Y54.5399 I-71.0394 J23.2355
G3 X126.1389 Y59.649 I-79.6209 J18.115
G3 X126.139 Y59.6494 I-1.7277 J0.2787
G3 X127.0487 Y67.3839 I-90.1542 J14.525
G3 X127.3352 Y75.1486 I-103.1809 J7.6948
G1 Y75.1487
G3 X127.2918 Y78.1918 I-112.2546 J-0.0794
G3 X127.2888 Y78.3107 I-3.0156 J-0.0164
G3 X127.2848 Y78.4275 I-3.0145 J-0.0449
G3 X126.9243 Y84.3474 I-96.6076 J-2.9127
G3 X126.6247 Y87.138 I-85.7459 J-7.7925
G3 X126.6241 Y87.1434 I-1.7367 J-0.2151
G1 X126.54 Y87.805
G3 X126.5393 Y87.8109 I-1.7361 J-0.2205
G3 X125.6719 Y93.1255 I-83.2145 J-10.8533
G3 X125.6479 Y93.247 I-2.8646 J-0.5022
G3 X124.501 Y98.1785 I-73.5204 J-14.4989
G3 X123.8436 Y100.4781 I-66.9618 J-17.9009
G3 X123.4974 Y101.5837 I-67.3731 J-20.4864
G3 X121.9496 Y105.8846 I-63.8089 J-20.5343
G1 X121.9497 Y105.8845
G1 X121.9496 Y105.8846
G3 X120.2215 Y109.8186 I-57.9887 J-23.1269
G1 X120.2214 Y109.8188
G3 X118.5944 Y112.9584 I-53.7022 J-25.8376
G1 F300.0 Z-3.1
G3 F1500.0 X118.35 Y113.3933 I-52.0753 J-28.9773
G3 X114.1702 Y119.716 I-48.1341 J-27.2779
G3 X109.8067 Y124.7275 I-41.2697 J-31.5278
G3 X100.7574 Y132.0009 I-36.3955 J-36.016
G3 X100.7567 Y132.0014 I-0.9346 J-1.4795
G3 X93.0514 Y136.0243 I-28.413 J-45.0295
G3 X86.9273 Y138.2095 I-22.2176 J-52.5912
G3 X82.2063 Y139.3963 I-17.1029 J-58.053
G3 X82.2056 Y139.3964 I-0.358 J-1.713
G3 X75.0099 Y140.4935 I-13.6833 J-65.6004
G3 X75.0055 Y140.494 I-0.1694 J-1.7418
G1 X74.5642 Y140.5357
G3 X74.5576 Y140.5364 I-0.165 J-1.7422
G3 X70.2375 Y140.8023 I-6.7209 J-73.9635
G3 X69.4874 Y140.8227 Z-1.6 I-2.4008 J-74.2294
G3 X67.7579 Y140.841 I-1.6507 J-74.2499
G3 X67.7511 I0.0019 J-1.75
G1 X66.9862 Y140.8372
G3 X66.9688 Y140.8371 I0.0087 J-1.75
G1 X66.2098 Y140.8258
G3 X66.2 Y140.8256 I0.0261 J-1.7498
G3 X65.9873 Y140.8209 I1.607 J-78.4235
G3 X65.2374 Y140.7999 Z-3.1 I1.8197 J-78.4189
G3 X63.1208 Y140.7019 I2.5696 J-78.3979
G3 X63.1197 I0.1045 J-1.7469
G3 X57.1636 Y140.0885 I4.2833 J-70.8179
G3 X57.1631 Y140.0884 I0.2526 J-1.7317
G3 X51.6313 Y139.0307 I9.2979 J-63.6213
G3 X51.631 Y139.0306 I0.4036 J-1.7028
G3 X46.5586 Y137.5898 I13.8876 J-58.538
G3 X46.4503 Y137.5536 I0.9659 J-3.0731
G3 X41.8366 Y135.7807 I18.1567 J-54.1395
G1 X41.8363 Y135.7806
G3 X33.6618 Y131.3311 I21.082 J-48.4658
G3 X33.6612 Y131.3307 I0.9687 J-1.4574
G3 X27.2693 Y126.2942 I28.0999 J-42.2359
G3 X22.4053 Y121.1178 I34.8531 J-37.6236
G3 X18.7651 Y116.1033 I41.5413 J-33.9851
G3 X16.0637 Y111.422 I48.4362 J-31.0706
G3 X14.0641 Y107.1502 I54.2868 J-28.0151
G3 X13.2925 Y105.2384 I55.9805 J-23.7045
G3 X12.0106 Y101.5998 I62.223 J-23.9656
G3 X12.0093 Y101.5958 I1.6667 J-0.5335
G1 X11.885 Y101.2041
G3 X11.8819 Y101.1941 I1.668 J-0.5294
G1 X11.7618 Y100.8078
G3 X11.7596 Y100.8006 I1.6711 J-0.5194
G3 X10.1231 Y94.4891 I71.9264 J-22.0172
G1 Y94.4889
G3 X9.2474 Y89.6876 I79.9673 J-17.065
G1 Y89.6875
G3 X8.4455 Y82.4278 I89.2251 J-13.53
G3 X8.1933 Y75.146 I102.5128 J-7.1954
G3 X8.2369 Y72.0803 I114.5677 J0.0961
G3 X8.2399 Y71.9611 I3.0553 J0.0173
G3 X8.2439 Y71.8442 I3.0542 J0.0454
G3 X8.6051 Y65.8796 I97.5798 J2.9161
G3 X8.6057 Y65.8733 I1.7427 J0.1592
G1 X8.6712 Y65.1837
G3 X8.6725 Y65.1706 I1.7422 J0.1655
G1 X8.7427 Y64.4867
G3 X8.7433 Y64.4807 I1.7409 J0.1786
G3 X9.4995 Y58.9868 I88.6862 J9.408
G3 X9.5208 Y58.862 I2.9235 J0.4345
G3 X10.563 Y53.7619 I79.04 J13.4955
G3 X10.6394 Y53.4442 I12.4289 J2.8224
G3 X11.9494 Y48.7229 I71.3304 J17.2482
G3 X13.4138 Y44.5231 I65.779 J20.5814
G3 X13.4745 Y44.3662 Z-2.7635 I64.3145 J24.7812
G3 X13.6872 Y43.8243 Z-1.6 I59.9139 J23.2098
G3 X15.0691 Y40.6086 I59.7011 J23.7517
G3 X15.1776 Y40.3754 Z-2.1144 I58.3192 J26.9673
G3 X15.3876 Y39.9292 Z-3.1 I54.3715 J25.3262
G3 X19.1146 Y33.2356 I54.1614 J25.7724
G3 X19.1168 Y33.2323 I1.4715 J0.9472
G3 X19.6053 Y32.4881 I55.8332 J36.1224
G3 X23.8829 Y26.8879 I45.4019 J30.2456
G3 X33.0185 Y18.6117 I39.3374 J34.2422
G3 X33.0197 Y18.6109 I1.0134 J1.4267
G3 X40.9989 Y13.9489 I30.4004 J42.8724
G3 X47.4262 Y11.3922 I23.5859 J49.9342
G3 X52.4138 Y9.9976 I18.1674 J55.3568
G1 Y9.9975
G1 Y9.9976
G3 X60.0501 Y8.7051 I14.4756 J62.3235
G3 X60.0544 Y8.7047 I0.1871 J1.74
G1 X60.523 Y8.6555
G3 X60.535 Y8.6542 I0.1828 J1.7404
G1 X60.9744 Y8.6112
G3 X60.9815 Y8.6105 I0.1708 J1.7416
G3 X67.7366 Y8.2956 I6.7172 J71.4948
G3 X67.8823 Y8.2957 I0.0705 J3.1402
G3 X74.152 Y8.575 I-0.0988 J72.7506
G3 X74.29 Y8.5873 I-0.2112 J3.1293
G3 X80.1538 Y9.3841 I-5.9488 J65.7581
G1 X80.1539
G1 X80.1537
G1 X80.1538
G3 X85.595 Y10.6337 I-10.8627 J59.7673
G3 X85.5958 Y10.634 I-0.4697 J1.6858
G3 X90.5726 Y12.2678 I-15.654 J56.0793
G3 X90.5748 Y12.2686 I-0.6201 J1.6365
G3 X92.851 Y13.1921 I-19.9854 J52.5288
G3 X92.8523 Y13.1927 I-0.6932 J1.6069
G3 X95.0158 Y14.1838 I-21.937 J50.7429
G1 X95.0159
G1 X95.0158
G3 X102.9303 Y18.9154 I-22.9171 J47.3178
G3 X102.9325 Y18.917 I-1.0262 J1.4175
G3 X106.0986 Y21.4055 I-31.1722 J42.9192
G3 X106.1002 Y21.4068 I-1.1329 J1.3338
G3 X108.8831 Y23.9547 I-33.9691 J39.8972
G3 X108.8836 Y23.9551 I-1.2274 J1.2474
G3 X111.3166 Y26.5163 I-37.193 J37.7692
G3 X111.3174 Y26.5171 I-1.3082 J1.1624
G3 X115.3971 Y31.7161 I-40.9219 J36.3119
G3 X115.3978 Y31.7172 I-1.4395 J0.9952
G3 X118.4349 Y36.6154 I-48.2751 J33.3236
G3 X118.4354 Y36.6162 I-1.5308 J0.848
G3 X120.1376 Y39.9245 I-54.0546 J29.904
G3 X120.4565 Y40.6038 Z-1.6 I-55.7567 J26.5958
G3 X120.6898 Y41.1146 I-56.0757 J25.9165
G3 X120.6922 Y41.1198 I-1.5952 J0.7197
G3 X121.1308 Y42.1135 I-102.2015 J45.7108
G3 X121.1339 Y42.1207 I-1.6044 J0.699
G3 X121.8379 Y43.8196 I-62.3627 J26.8352
G3 X122.1118 Y44.5182 Z-3.1 I-63.0667 J25.1363
G3 X122.6913 Y46.0766 I-63.3407 J24.4377
G3 X123.2946 Y47.8369 I-62.0586 J22.2528
G3 X125.1466 Y54.5399 I-71.0394 J23.2355
G3 X126.1389 Y59.649 I-79.6209 J18.115
G3 X126.139 Y59.6494 I-1.7277 J0.2787
G3 X127.0487 Y67.3839 I-90.1542 J14.525
G3 X127.3352 Y75.1486 I-103.1809 J7.6948
G1 Y75.1487
G3 X127.2918 Y78.1918 I-112.2546 J-0.0794
G3 X127.2888 Y78.3107 I-3.0156 J-0.0164
G3 X127.2848 Y78.4275 I-3.0145 J-0.0449
G3 X126.9243 Y84.3474 I-96.6076 J-2.9127
G3 X126.6247 Y87.138 I-85.7459 J-7.7925
G3 X126.6241 Y87.1434 I-1.7367 J-0.2151
G1 X126.54 Y87.805
G3 X126.5393 Y87.8109 I-1.7361 J-0.2205
G3 X125.6719 Y93.1255 I-83.2145 J-10.8533
G3 X125.6479 Y93.247 I-2.8646 J-0.5022
G3 X124.501 Y98.1785 I-73.5204 J-14.4989
G3 X123.8436 Y100.4781 I-66.9618 J-17.9009
G3 X123.4974 Y101.5837 I-67.3731 J-20.4864
G3 X121.9496 Y105.8846 I-63.8089 J-20.5343
G1 X121.9497 Y105.8845
G1 X121.9496 Y105.8846
G3 X120.2215 Y109.8186 I-57.9887 J-23.1269
G1 X120.2214 Y109.8188
G3 X118.5944 Y112.9584 I-53.7022 J-25.8376
G0 Z3.0
G0 X44.4857 Y149.2307
G0 Z1.0
G1 F300.0 Z-1.6
G3 F1500.0 X44.6639 Y150.0 I-1.5718 J0.7693
G1 Y274.4494
G3 X42.9139 Y276.1994 I-1.75 J0.0
G1 X10.0
G3 X8.25 Y274.4494 I0.0 J-1.75
G1 Y150.0
G3 X10.0 Y148.25 I1.75 J0.0
G1 X42.9139
G3 X44.4857 Y149.2307 I0.0 J1.75
G1 F300.0 Z-3.1
G3 F1500.0 X44.6639 Y150.0 I-1.5718 J0.7693
G1 Y167.0405
G1 Y167.7905 Z-1.6
G1 Y171.2905
G1 Y172.0405 Z-3.1
G1 Y274.4494
G3 X42.9139 Y276.1994 I-1.75 J0.0
G1 X31.5
G1 X30.75 Z-1.6
G1 X27.25
G1 X26.5 Z-3.1
G1 X10.0
G3 X8.25 Y274.4494 I0.0 J-1.75
G1 Y204.9544
G1 Y204.2044 Z-1.6
G1 Y200.7044
G1 Y199.9544 Z-3.1
G1 Y150.0
G3 X10.0 Y148.25 I1.75 J0.0
G1 X42.9139
G3 X44.4857 Y149.2307 I0.0 J1.75
G0 Z3.0
M5
M30
