( Made using CamBam - http://www.cambam.co.uk )
( tabla_elektronika_edit_elektr 10/21/2014 12:29:19 PM )
( T0 : 3.5 )
G21 G90 G64 G40
G0 Z3.0
( T0 : 3.5 )
T0 M6
( elektr )
G17
M3 S1000
G0 X234.6639 Y79.5162
G0 Z1.0
G1 F300.0 Z-1.6
G1 F1500.0 Y106.6796
G1 X244.7952
G3 X244.7983 I0.0 J1.75
G2 X248.1154 Y106.593 I0.1054 J-59.5475
G1 X248.4884 Y106.5709
G2 X251.3376 Y106.2931 I-2.3773 J-39.1353
G3 X251.3391 Y106.2929 I0.2333 J1.7344
G2 X253.7879 Y105.8525 I-3.6533 J-27.3446
G3 X253.7897 Y105.8521 I0.3871 J1.7067
G2 X255.847 Y105.2665 I-4.2529 J-18.8464
G3 X255.8489 Y105.2658 I0.5716 J1.654
G2 X257.5329 Y104.562 I-4.6192 J-13.418
G1 Y104.5619
G1 X257.5328 Y104.562
G1 X257.5329
G2 X258.8713 Y103.7769 I-4.9147 J-9.9118
G3 X258.8723 Y103.7762 I0.9891 J1.4437
G2 X259.9012 Y102.9557 I-5.0812 J-7.4273
G3 X259.9041 Y102.953 I1.1882 J1.2848
G2 X261.3451 Y101.207 I-5.6275 J-6.1121
G2 X262.1094 Y99.6615 I-7.8396 J-4.8383
G3 X262.1112 Y99.6566 I1.6344 J0.6255
G2 X262.5112 Y98.396 I-10.0699 J-3.8887
G2 X262.8688 Y96.3697 I-14.1874 J-3.5483
G3 X262.8699 Y96.3592 I1.7405 J0.1821
G2 X262.9167 Y95.851 I-13.7166 J-1.5188
G1 X262.9312 Y95.6491
G1 X262.9515 Y95.2973
G2 X262.9702 Y94.7763 I-42.3879 J-1.7832
G1 X262.9748 Y94.5137
G1 X262.9763 Y94.2439
G2 X262.909 Y92.5316 I-21.0512 J-0.0306
G3 X262.9089 Y92.53 I1.7444 J-0.1398
G2 X262.7133 Y90.9502 I-17.989 J1.4256
G3 X262.713 Y90.9483 I1.7256 J-0.2915
G2 X262.4007 Y89.5119 I-15.154 J2.5423
G3 X262.3995 Y89.5073 I1.6903 J-0.4531
G2 X261.4423 Y86.9798 I-12.7247 J3.3742
G2 X258.5841 Y83.3773 I-10.1205 J5.0943
G2 X257.8967 Y82.8416 I-8.4142 J10.0873
G2 X256.5106 Y81.9644 I-8.0506 J11.188
G2 X256.1848 Y81.79 I-11.5409 J21.167
G2 X254.9056 Y81.1981 I-7.2326 J13.9536
G2 X252.5187 Y80.4041 I-7.1743 J17.5819
G3 X252.5162 Y80.4035 I0.4412 J-1.6935
G2 X250.6434 Y79.9922 I-6.0509 J23.0867
G1 X250.4639 Y79.9608
G1 X250.1073 Y79.9021
G2 X248.8078 Y79.7276 I-4.1185 J25.7474
G3 X248.804 Y79.7272 I0.1892 J-1.7397
G2 X246.8114 Y79.5666 I-3.6627 J33.01
G2 X244.7954 Y79.5162 I-2.011 J40.0931
G1 X244.7952
G1 X234.6639
G1 F300.0 Z-3.1
G1 F1500.0 Y87.2525
G1 Y88.0025 Z-1.6
G1 Y91.5025
G1 Y92.2525 Z-3.1
G1 Y106.6796
G1 X244.7952
G3 X244.7983 I0.0 J1.75
G2 X248.1154 Y106.593 I0.1054 J-59.5475
G1 X248.4884 Y106.5709
G2 X248.8538 Y106.547 I-2.3773 J-39.1353
G2 X249.6025 Y106.4872 Z-1.6 I-2.7428 J-39.1114
G2 X251.3376 Y106.2931 I-3.4914 J-39.0517
G3 X251.3391 Y106.2929 I0.2333 J1.7344
G2 X253.0692 Y106.0055 I-3.6533 J-27.3446
G2 X253.7879 Y105.8525 Z-3.0696 I-5.3834 J-27.0572
G3 X253.7897 Y105.8521 Z-3.0734 I0.3871 J1.7067
G2 X253.8049 Y105.8487 Z-3.1 I-4.2529 J-18.8464
G2 X255.847 Y105.2665 I-4.2681 J-18.843
G3 X255.8489 Y105.2658 I0.5716 J1.654
G2 X257.5329 Y104.562 I-4.6192 J-13.418
G1 Y104.5619
G1 X257.5328 Y104.562
G1 X257.5329
G2 X258.8713 Y103.7769 I-4.9147 J-9.9118
G3 X258.8723 Y103.7762 I0.9891 J1.4437
G2 X259.9012 Y102.9557 I-5.0812 J-7.4273
G3 X259.9041 Y102.953 I1.1882 J1.2848
G2 X261.3451 Y101.207 I-5.6275 J-6.1121
G2 X262.1094 Y99.6615 I-7.8396 J-4.8383
G3 X262.1112 Y99.6566 I1.6344 J0.6255
G2 X262.5112 Y98.396 I-10.0699 J-3.8887
G2 X262.8688 Y96.3697 I-14.1874 J-3.5483
G3 X262.8699 Y96.3592 I1.7405 J0.1821
G2 X262.9167 Y95.851 I-13.7166 J-1.5188
G1 X262.9312 Y95.6491
G1 X262.9515 Y95.2973
G2 X262.9702 Y94.7763 I-42.3879 J-1.7832
G1 X262.9748 Y94.5137
G1 X262.9763 Y94.2439
G2 X262.909 Y92.5316 I-21.0512 J-0.0306
G3 X262.9089 Y92.53 I1.7444 J-0.1398
G2 X262.7133 Y90.9502 I-17.989 J1.4256
G3 X262.713 Y90.9483 I1.7256 J-0.2915
G2 X262.4007 Y89.5119 I-15.154 J2.5423
G3 X262.3995 Y89.5073 I1.6903 J-0.4531
G2 X261.4423 Y86.9798 I-12.7247 J3.3742
G2 X258.9282 Y83.6766 I-10.1205 J5.0943
G2 X258.5841 Y83.3773 Z-2.1878 I-7.6064 J8.3975
G2 X258.3481 Y83.185 Z-1.6 I-8.4142 J10.0873
G2 X257.8967 Y82.8416 I-8.1782 J10.2796
G2 X256.5106 Y81.9644 I-8.0506 J11.188
G2 X256.1848 Y81.79 I-11.5409 J21.167
G2 X255.3457 Y81.3862 I-7.2326 J13.9536
G2 X254.9056 Y81.1981 Z-2.5572 I-6.3935 J14.3574
G2 X254.6464 Y81.0946 Z-3.1 I-7.1743 J17.5819
G2 X252.5187 Y80.4041 I-6.915 J17.6855
G3 X252.5162 Y80.4035 I0.4412 J-1.6935
G2 X250.6434 Y79.9922 I-6.0509 J23.0867
G1 X250.4639 Y79.9608
G1 X250.1073 Y79.9021
G2 X248.8078 Y79.7276 I-4.1185 J25.7474
G3 X248.804 Y79.7272 I0.1892 J-1.7397
G2 X246.8114 Y79.5666 I-3.6627 J33.01
G2 X244.7954 Y79.5162 I-2.011 J40.0931
G1 X244.7952
G1 X234.6639
G0 Z3.0
G0 Y49.9963
G0 Z1.0
G1 F300.0 Z-1.6
G1 F1500.0 X244.4917
G1 X265.468 Y9.1998
G3 X267.0243 Y8.25 I1.5563 J0.8002
G1 X303.7674
G3 X305.2947 Y10.8542 I0.0 J1.75
G1 X279.1591 Y57.5836
G3 X282.6685 Y59.9044 I-21.8946 J36.9217
G3 X282.6723 Y59.9071 I-1.0357 J1.4106
G3 X284.6128 Y61.4305 I-24.7833 J33.5675
G3 X284.615 Y61.4324 I-1.1208 J1.344
G3 X287.9876 Y64.6182 I-24.7569 J29.5863
G3 X287.9886 Y64.6192 I-1.276 J1.1976
G3 X292.8562 Y71.1174 I-26.9854 J25.2864
G3 X292.8572 Y71.1191 I-1.5073 J0.8891
G3 X295.5158 Y76.5799 I-33.2727 J19.5764
G3 X295.5166 Y76.5818 I-1.6288 J0.6399
G1 X295.5661 Y76.7084
G3 X295.5684 Y76.7142 I-1.6296 J0.6379
G1 X295.6171 Y76.84
G3 X295.6188 Y76.8445 I-1.6318 J0.6322
G3 X296.9963 Y81.0929 I-39.1076 J15.0276
G3 X297.7361 Y84.3493 I-43.4404 J11.5807
G3 X297.7363 Y84.3503 I-1.7197 J0.324
G3 X298.4115 Y89.2832 I-49.327 J9.2643
G3 X298.4389 Y89.6077 I-15.112 J1.4383
G3 X298.6234 Y94.2492 I-57.6725 J4.6174
G3 X298.4406 Y98.9742 I-58.5946 J0.0986
G3 X298.4305 Y99.0991 I-2.4869 J-0.1371
G3 X297.876 Y103.5206 I-50.1457 J-4.0433
G3 X296.9662 Y107.6493 I-43.0337 J-7.3183
G3 X295.7297 Y111.4312 I-37.6141 J-10.205
G3 X294.2073 Y114.8459 I-33.2125 J-12.7608
G3 X290.3856 Y120.7206 I-29.6664 J-15.1183
G3 X290.3837 Y120.723 I-1.3584 J-1.1034
G3 X286.1135 Y125.0794 I-25.8773 J-21.0943
G3 X286.1131 Y125.0797 I-1.1326 J-1.3341
G3 X281.8374 Y128.2012 I-23.4825 J-27.6773
G3 X277.808 Y130.4131 I-21.5944 J-34.5614
G3 X277.8019 Y130.416 I-0.7543 J-1.5791
G1 X277.3673 Y130.6216
G3 X277.3496 Y130.6298 I-0.7482 J-1.582
G1 X276.9196 Y130.8273
G3 X276.9024 Y130.8351 I-0.7306 J-1.5902
G1 X276.4771 Y131.025
G3 X276.4604 Y131.0324 I-0.7134 J-1.598
G1 X276.0398 Y131.2149
G3 X276.0305 Y131.2189 I-0.6967 J-1.6053
G3 X272.5367 Y132.5577 I-19.4707 J-45.5844
G3 X272.5318 Y132.5593 I-0.5641 J-1.6566
G1 X272.1579 Y132.6854
G3 X272.1526 Y132.6872 I-0.5592 J-1.6582
G3 X269.0785 Y133.6132 I-17.2223 J-51.6104
G3 X269.0716 Y133.615 I-0.4551 J-1.6898
G1 X268.4147 Y133.789
G3 X268.3956 Y133.794 I-0.4481 J-1.6917
G1 X267.7573 Y133.9554
G3 X267.7467 Y133.958 I-0.4291 J-1.6966
G3 X262.618 Y135.0125 I-16.1778 J-65.6858
G3 X262.6175 Y135.0126 I-0.2858 J-1.7265
G3 X260.689 Y135.3095 I-14.4188 J-87.2534
G3 X260.6816 Y135.3105 I-0.2472 J-1.7325
G1 X260.2672 Y135.3678
G3 X260.2581 Y135.3691 I-0.2399 J-1.7335
G1 X259.8563 Y135.4225
G3 X259.8434 Y135.4242 I-0.2308 J-1.7347
G1 X259.0642 Y135.522
G3 X259.0481 Y135.5239 I-0.2179 J-1.7364
G1 X258.3168 Y135.6088
G3 X258.3076 Y135.6099 I-0.2018 J-1.7383
G3 X252.6998 Y136.0604 I-10.2907 J-92.9649
G3 X252.699 I-0.0876 J-1.7478
G3 X247.0931 Y136.1994 I-5.599 J-112.7276
G1 X247.0932
G1 X247.0931
G1 X200.0
G3 X198.25 Y134.4494 I0.0 J-1.75
G1 Y10.0
G3 X200.0 Y8.25 I1.75 J0.0
G1 X232.9139
G3 X234.6639 Y10.0 I0.0 J1.75
G1 Y49.9963
G1 F300.0 Z-3.1
G1 F1500.0 X244.4917
G1 X252.0623 Y35.2723
G1 X252.4053 Y34.6053 Z-1.6
G1 X254.0057 Y31.4927
G1 X254.3486 Y30.8257 Z-3.1
G1 X265.468 Y9.1998
G3 X267.0243 Y8.25 I1.5563 J0.8002
G1 X303.7674
G3 X305.2947 Y10.8542 I0.0 J1.75
G1 X279.1591 Y57.5836
G3 X282.6685 Y59.9044 I-21.8946 J36.9217
G3 X282.6723 Y59.9071 I-1.0357 J1.4106
G3 X284.6128 Y61.4305 I-24.7833 J33.5675
G3 X284.615 Y61.4324 I-1.1208 J1.344
G3 X287.9876 Y64.6182 I-24.7569 J29.5863
G3 X287.9886 Y64.6192 I-1.276 J1.1976
G3 X292.8562 Y71.1174 I-26.9854 J25.2864
G3 X292.8572 Y71.1191 I-1.5073 J0.8891
G3 X295.5158 Y76.5799 I-33.2727 J19.5764
G3 X295.5166 Y76.5818 I-1.6288 J0.6399
G1 X295.5661 Y76.7084
G3 X295.5684 Y76.7142 I-1.6296 J0.6379
G1 X295.6171 Y76.84
G3 X295.6188 Y76.8445 I-1.6318 J0.6322
G3 X296.9963 Y81.0929 I-39.1076 J15.0276
G3 X297.7361 Y84.3493 I-43.4404 J11.5807
G3 X297.7363 Y84.3503 I-1.7197 J0.324
G3 X298.4115 Y89.2832 I-49.327 J9.2643
G3 X298.4389 Y89.6077 I-15.112 J1.4383
G3 X298.6234 Y94.2492 I-57.6725 J4.6174
G3 X298.4406 Y98.9742 I-58.5946 J0.0986
G3 X298.4305 Y99.0991 I-2.4869 J-0.1371
G3 X297.876 Y103.5206 I-50.1457 J-4.0433
G3 X296.9662 Y107.6493 I-43.0337 J-7.3183
G3 X295.7297 Y111.4312 I-37.6141 J-10.205
G3 X294.2073 Y114.8459 I-33.2125 J-12.7608
G3 X290.8795 Y120.0976 I-29.6664 J-15.1183
G3 X290.413 Y120.6869 Z-1.6 I-26.3386 J-20.37
G3 X290.3856 Y120.7206 I-25.8721 J-20.9593
G3 X290.3837 Y120.723 I-1.3584 J-1.1034
G3 X288.066 Y123.2835 I-25.8773 J-21.0943
G3 X287.5276 Y123.8078 Z-3.1 I-23.5597 J-23.6548
G3 X286.1135 Y125.0794 I-23.0212 J-24.1791
G3 X286.1131 Y125.0797 I-1.1326 J-1.3341
G3 X281.8374 Y128.2012 I-23.4825 J-27.6773
G3 X277.808 Y130.4131 I-21.5944 J-34.5614
G3 X277.8019 Y130.416 I-0.7543 J-1.5791
G1 X277.3673 Y130.6216
G3 X277.3496 Y130.6298 I-0.7482 J-1.582
G1 X276.9196 Y130.8273
G3 X276.9024 Y130.8351 I-0.7306 J-1.5902
G1 X276.4771 Y131.025
G3 X276.4604 Y131.0324 I-0.7134 J-1.598
G1 X276.0398 Y131.2149
G3 X276.0305 Y131.2189 I-0.6967 J-1.6053
G3 X272.5367 Y132.5577 I-19.4707 J-45.5844
G3 X272.5318 Y132.5593 I-0.5641 J-1.6566
G1 X272.1579 Y132.6854
G3 X272.1526 Y132.6872 I-0.5592 J-1.6582
G3 X269.0785 Y133.6132 I-17.2223 J-51.6104
G3 X269.0716 Y133.615 I-0.4551 J-1.6898
G1 X268.4147 Y133.789
G3 X268.3956 Y133.794 I-0.4481 J-1.6917
G1 X267.7573 Y133.9554
G3 X267.7467 Y133.958 I-0.4291 J-1.6966
G3 X262.618 Y135.0125 I-16.1778 J-65.6858
G3 X262.6175 Y135.0126 I-0.2858 J-1.7265
G3 X260.689 Y135.3095 I-14.4188 J-87.2534
G3 X260.6816 Y135.3105 I-0.2472 J-1.7325
G1 X260.2672 Y135.3678
G3 X260.2581 Y135.3691 I-0.2399 J-1.7335
G1 X259.8563 Y135.4225
G3 X259.8434 Y135.4242 I-0.2308 J-1.7347
G1 X259.0642 Y135.522
G3 X259.0481 Y135.5239 I-0.2179 J-1.7364
G1 X258.3168 Y135.6088
G3 X258.3076 Y135.6099 I-0.2018 J-1.7383
G3 X252.6998 Y136.0604 I-10.2907 J-92.9649
G3 X252.699 I-0.0876 J-1.7478
G3 X247.0931 Y136.1994 I-5.599 J-112.7276
G1 X247.0932
G1 X247.0931
G1 X200.0
G3 X198.25 Y134.4494 I0.0 J-1.75
G1 Y98.6885
G1 Y97.9385 Z-1.6
G1 Y94.4385
G1 Y93.6885 Z-3.1
G1 Y10.0
G3 X200.0 Y8.25 I1.75 J0.0
G1 X232.9139
G3 X234.6639 Y10.0 I0.0 J1.75
G1 Y49.9963
G0 Z3.0
G0 X184.0234 Y37.956
G0 Z1.0
G1 F300.0 Z-1.6
G3 F1500.0 X182.3209 Y39.3012 I-1.7025 J-0.4048
G1 X134.6639
G1 Y58.0393
G1 X173.5111
G3 X175.2611 Y59.7893 I0.0 J1.75
G1 Y87.3404
G3 X173.5111 Y89.0904 I-1.75 J0.0
G1 X134.6639
G1 Y105.1483
G1 X180.4051
G3 X182.1551 Y106.8983 I0.0 J1.75
G1 Y134.4494
G3 X180.4051 Y136.1994 I-1.75 J0.0
G1 X100.0
G3 X98.25 Y134.4494 I0.0 J-1.75
G1 Y10.0
G3 X100.0 Y8.25 I1.75 J0.0
G1 X182.3209
G3 X184.0709 Y10.0 I0.0 J1.75
G1 Y37.5512
G3 X184.0234 Y37.956 I-1.75 J0.0
G1 F300.0 Z-3.1
G3 F1500.0 X182.3209 Y39.3012 I-1.7025 J-0.4048
G1 X134.6639
G1 Y58.0393
G1 X173.5111
G3 X175.2611 Y59.7893 I0.0 J1.75
G1 Y87.3404
G3 X173.5111 Y89.0904 I-1.75 J0.0
G1 X134.6639
G1 Y105.1483
G1 X180.4051
G3 X182.1551 Y106.8983 I0.0 J1.75
G1 Y117.5
G1 Y118.25 Z-1.6
G1 Y121.75
G1 Y122.5 Z-3.1
G1 Y134.4494
G3 X180.4051 Y136.1994 I-1.75 J0.0
G1 X100.0
G3 X98.25 Y134.4494 I0.0 J-1.75
G1 Y77.5
G1 Y76.75 Z-1.6
G1 Y73.25
G1 Y72.5 Z-3.1
G1 Y10.0
G3 X100.0 Y8.25 I1.75 J0.0
G1 X182.3209
G3 X184.0709 Y10.0 I0.0 J1.75
G1 Y23.4653
G1 Y24.2153 Z-1.6
G1 Y27.7153
G1 Y28.4653 Z-3.1
G1 Y37.5512
G3 X184.0234 Y37.956 I-1.75 J0.0
G0 Z3.0
G0 X94.0709 Y37.5589
G0 Z1.0
G1 F300.0 Z-1.6
G3 F1500.0 X92.3209 Y39.3012 I-1.75 J-0.0077
G1 X44.6639
G1 Y58.0393
G1 X83.5112
G3 X85.2612 Y59.7893 I0.0 J1.75
G1 Y87.3404
G3 X83.5112 Y89.0904 I-1.75 J0.0
G1 X44.6639
G1 Y105.1483
G1 X90.4052
G3 X92.1552 Y106.8983 I0.0 J1.75
G1 Y134.4494
G3 X90.4052 Y136.1994 I-1.75 J0.0
G1 X10.0
G3 X8.25 Y134.4494 I0.0 J-1.75
G1 Y10.0
G3 X10.0 Y8.25 I1.75 J0.0
G1 X92.3209
G3 X94.0709 Y10.0 I0.0 J1.75
G1 Y37.5512
G3 Y37.5589 I-1.75 J0.0
G1 F300.0 Z-3.1
G3 F1500.0 X92.3209 Y39.3012 I-1.75 J-0.0077
G1 X44.6639
G1 Y58.0393
G1 X83.5112
G3 X85.2612 Y59.7893 I0.0 J1.75
G1 Y87.3404
G3 X83.5112 Y89.0904 I-1.75 J0.0
G1 X44.6639
G1 Y105.1483
G1 X90.4052
G3 X92.1552 Y106.8983 I0.0 J1.75
G1 Y119.5
G1 Y120.25 Z-1.6
G1 Y123.75
G1 Y124.5 Z-3.1
G1 Y134.4494
G3 X90.4052 Y136.1994 I-1.75 J0.0
G1 X10.0
G3 X8.25 Y134.4494 I0.0 J-1.75
G1 Y72.5
G1 Y71.75 Z-1.6
G1 Y68.25
G1 Y67.5 Z-3.1
G1 Y10.0
G3 X10.0 Y8.25 I1.75 J0.0
G1 X92.3209
G3 X94.0709 Y10.0 I0.0 J1.75
G1 Y23.4654
G1 Y24.2154 Z-1.6
G1 Y27.7154
G1 Y28.4654 Z-3.1
G1 Y37.5512
G3 Y37.5589 I-1.75 J0.0
G0 Z3.0
G0 Y148.25
G0 Z1.0
G1 F300.0 Z-1.6
G1 F1500.0 X118.3635
G3 X119.8634 Y150.9016 I0.0 J1.75
G1 X76.0372 Y223.8052
G1 X112.4973 Y273.413
G3 X111.0872 Y276.1994 I-1.4101 J1.0364
G1 X75.0859
G3 X73.6373 Y275.4313 I0.0 J-1.75
G1 X44.6639 Y232.6889
G1 Y274.4494
G3 X42.9139 Y276.1994 I-1.75 J0.0
G1 X10.0
G3 X8.25 Y274.4494 I0.0 J-1.75
G1 Y150.0
G3 X10.0 Y148.25 I1.75 J0.0
G1 X42.9139
G3 X44.6639 Y150.0 I0.0 J1.75
G1 Y180.4595
G1 X54.6382 Y194.618
G1 X80.8458 Y149.1264
G3 X82.3622 Y148.25 I1.5164 J0.8736
G1 X94.0709
G1 F300.0 Z-3.1
G1 F1500.0 X118.3635
G3 X119.8634 Y150.9016 I0.0 J1.75
G1 X76.0372 Y223.8052
G1 X91.8964 Y245.3833
G1 X92.3406 Y245.9877 Z-1.6
G1 X94.4134 Y248.8079
G1 X94.8575 Y249.4122 Z-3.1
G1 X112.4973 Y273.413
G3 X111.0872 Y276.1994 I-1.4101 J1.0364
G1 X75.0859
G3 X73.6373 Y275.4313 I0.0 J-1.75
G1 X44.6639 Y232.6889
G1 Y274.4494
G3 X42.9139 Y276.1994 I-1.75 J0.0
G1 X26.5
G1 X25.75 Z-1.6
G1 X22.25
G1 X21.5 Z-3.1
G1 X10.0
G3 X8.25 Y274.4494 I0.0 J-1.75
G1 Y150.0
G3 X10.0 Y148.25 I1.75 J0.0
G1 X42.9139
G3 X44.6639 Y150.0 I0.0 J1.75
G1 Y180.4595
G1 X54.6382 Y194.618
G1 X61.5003 Y182.7068
G1 X61.8746 Y182.0569 Z-1.6
G1 X63.6218 Y179.0241
G1 X63.9962 Y178.3743 Z-3.1
G1 X80.8458 Y149.1264
G3 X82.3622 Y148.25 I1.5164 J0.8736
G1 X94.0709
G0 Z3.0
G0 X148.2509 Y149.9453
G0 Z1.0
G1 F300.0 Z-1.6
G3 F1500.0 X150.0 Y148.25 I1.7491 J0.0547
G1 X182.9139
G3 X184.6639 Y150.0 I0.0 J1.75
G1 Y245.1483
G1 X215.8504
G3 X217.6004 Y246.8983 I0.0 J1.75
G1 Y274.4494
G3 X215.8504 Y276.1994 I-1.75 J0.0
G1 X117.0613
G3 X115.3113 Y274.4494 I0.0 J-1.75
G1 Y246.8983
G3 X117.0613 Y245.1483 I1.75 J0.0
G1 X148.25
G1 Y150.0
G3 X148.2509 Y149.9453 I1.75 J0.0
G1 F300.0 Z-3.1
G3 F1500.0 X150.0 Y148.25 I1.7491 J0.0547
G1 X164.5
G1 X165.25 Z-1.6
G1 X168.75
G1 X169.5 Z-3.1
G1 X182.9139
G3 X184.6639 Y150.0 I0.0 J1.75
G1 Y245.1483
G1 X215.8504
G3 X217.6004 Y246.8983 I0.0 J1.75
G1 Y258.5
G1 Y259.25 Z-1.6
G1 Y262.75
G1 Y263.5 Z-3.1
G1 Y274.4494
G3 X215.8504 Y276.1994 I-1.75 J0.0
G1 X117.0613
G3 X115.3113 Y274.4494 I0.0 J-1.75
G1 Y260.5
G1 Y259.75 Z-1.6
G1 Y256.25
G1 Y255.5 Z-3.1
G1 Y246.8983
G3 X117.0613 Y245.1483 I1.75 J0.0
G1 X148.25
G1 Y150.0
G3 X148.2509 Y149.9453 I1.75 J0.0
G0 Z3.0
G0 X228.25 Y149.9988
G0 Z1.0
G1 F300.0 Z-1.6
G3 F1500.0 X230.0 Y148.25 I1.75 J0.0012
G1 X310.0229
G3 X311.7729 Y150.0 I0.0 J1.75
G1 Y177.5512
G3 X310.0229 Y179.3012 I-1.75 J0.0
G1 X264.6639
G1 Y274.4494
G3 X262.9139 Y276.1994 I-1.75 J0.0
G1 X230.0
G3 X228.25 Y274.4494 I0.0 J-1.75
G1 Y150.0
G3 Y149.9988 I1.75 J0.0
G1 F300.0 Z-3.1
G3 F1500.0 X230.0 Y148.25 I1.75 J0.0012
G1 X310.0229
G3 X311.7729 Y150.0 I0.0 J1.75
G1 Y160.5
G1 Y161.25 Z-1.6
G1 Y164.75
G1 Y165.5 Z-3.1
G1 Y177.5512
G3 X310.0229 Y179.3012 I-1.75 J0.0
G1 X264.6639
G1 Y274.4494
G3 X262.9139 Y276.1994 I-1.75 J0.0
G1 X247.5
G1 X246.75 Z-1.6
G1 X243.25
G1 X242.5 Z-3.1
G1 X230.0
G3 X228.25 Y274.4494 I0.0 J-1.75
G1 Y173.5
G1 Y172.75 Z-1.6
G1 Y169.25
G1 Y168.5 Z-3.1
G1 Y150.0
G3 Y149.9988 I1.75 J0.0
G0 Z3.0
M5
M30
